(G-CODE GENERATED BY FLATCAM v8.994 - www.flatcam.org - Version Date: 2020/11/7)

(Name: Q1060-Shield Arduino_drill.txt_cnc)
(Type: G-code from Geometry)
(Units: MM)

(Created on Friday, 08 December 2023 at 07:54)

(This preprocessor is used with a motion controller loaded with GRBL firmware.)
(It is configured to be compatible with almost any version of GRBL firmware.)


(TOOLS DIAMETER: )
(Tool: 1 -> Dia: 0.9652)

(FEEDRATE Z: )
(Tool: 1 -> Feedrate: 10.0)

(FEEDRATE RAPIDS: )
(Tool: 1 -> Feedrate Rapids: 1500)

(Z_CUT: )
(Tool: 1 -> Z_Cut: -2.5)

(Tools Offset: )
(Tool: 1 -> Offset Z: 0.0)

(Z_MOVE: )
(Tool: 1 -> Z_Move: 2.0)

(Z Toolchange: 15 mm)
(X,Y Toolchange: 0.0000, 0.0000 mm)
(Z Start: None mm)
(Z End: 2.0 mm)
(X,Y End: 0.0000, 0.0000 mm)
(Steps per circle: 64)
(Steps per circle: 64)
(Preprocessor Excellon: GRBL_11_no_M6)

(X range:    1.8745 ...   38.3997  mm)
(Y range:    1.7907 ...   51.0159  mm)

(Spindle Speed: 0 RPM)
G21
G90
G17
G94


G01 F10.00

M5             
G00 Z15.0000
G00 X0.0000 Y0.0000                
T1
(MSG, Change to Tool Dia = 0.9652 ||| Total drills for tool T1 = 42)
M0
G00 Z15.0000
        
G01 F10.00
M03
G00 X9.9771 Y46.7233
G01 Z-2.5000
G01 Z0
G00 Z2.0000
G00 X9.9771 Y44.1833
G01 Z-2.5000
G01 Z0
G00 Z2.0000
G00 X17.5971 Y39.1033
G01 Z-2.5000
G01 Z0
G00 Z2.0000
G00 X17.5971 Y36.5633
G01 Z-2.5000
G01 Z0
G00 Z2.0000
G00 X17.5971 Y34.0233
G01 Z-2.5000
G01 Z0
G00 Z2.0000
G00 X17.5971 Y31.4833
G01 Z-2.5000
G01 Z0
G00 Z2.0000
G00 X17.5971 Y26.4033
G01 Z-2.5000
G01 Z0
G00 Z2.0000
G00 X17.5971 Y23.8633
G01 Z-2.5000
G01 Z0
G00 Z2.0000
G00 X17.5971 Y21.3233
G01 Z-2.5000
G01 Z0
G00 Z2.0000
G00 X17.5971 Y18.7833
G01 Z-2.5000
G01 Z0
G00 Z2.0000
G00 X17.5971 Y13.7033
G01 Z-2.5000
G01 Z0
G00 Z2.0000
G00 X17.5971 Y11.1633
G01 Z-2.5000
G01 Z0
G00 Z2.0000
G00 X17.5971 Y8.6233
G01 Z-2.5000
G01 Z0
G00 Z2.0000
G00 X17.5971 Y6.0833
G01 Z-2.5000
G01 Z0
G00 Z2.0000
G00 X2.3571 Y2.2733
G01 Z-2.5000
G01 Z0
G00 Z2.0000
G00 X4.8971 Y2.2733
G01 Z-2.5000
G01 Z0
G00 Z2.0000
G00 X7.4371 Y2.2733
G01 Z-2.5000
G01 Z0
G00 Z2.0000
G00 X9.9771 Y2.2733
G01 Z-2.5000
G01 Z0
G00 Z2.0000
G00 X12.5171 Y2.2733
G01 Z-2.5000
G01 Z0
G00 Z2.0000
G00 X15.0571 Y2.2733
G01 Z-2.5000
G01 Z0
G00 Z2.0000
G00 X20.1371 Y2.2733
G01 Z-2.5000
G01 Z0
G00 Z2.0000
G00 X22.6771 Y2.2733
G01 Z-2.5000
G01 Z0
G00 Z2.0000
G00 X25.2171 Y2.2733
G01 Z-2.5000
G01 Z0
G00 Z2.0000
G00 X27.7571 Y2.2733
G01 Z-2.5000
G01 Z0
G00 Z2.0000
G00 X30.2971 Y2.2733
G01 Z-2.5000
G01 Z0
G00 Z2.0000
G00 X32.8371 Y2.2733
G01 Z-2.5000
G01 Z0
G00 Z2.0000
G00 X35.3771 Y2.2733
G01 Z-2.5000
G01 Z0
G00 Z2.0000
G00 X37.9171 Y2.2733
G01 Z-2.5000
G01 Z0
G00 Z2.0000
G00 X36.8884 Y50.4952
G01 Z-2.5000
G01 Z0
G00 Z2.0000
G00 X34.3484 Y50.4952
G01 Z-2.5000
G01 Z0
G00 Z2.0000
G00 X31.8084 Y50.4952
G01 Z-2.5000
G01 Z0
G00 Z2.0000
G00 X29.2684 Y50.4952
G01 Z-2.5000
G01 Z0
G00 Z2.0000
G00 X26.7284 Y50.4952
G01 Z-2.5000
G01 Z0
G00 Z2.0000
G00 X24.1884 Y50.4952
G01 Z-2.5000
G01 Z0
G00 Z2.0000
G00 X20.1371 Y50.5333
G01 Z-2.5000
G01 Z0
G00 Z2.0000
G00 X17.5971 Y50.5333
G01 Z-2.5000
G01 Z0
G00 Z2.0000
G00 X15.0571 Y50.5333
G01 Z-2.5000
G01 Z0
G00 Z2.0000
G00 X12.5171 Y50.5333
G01 Z-2.5000
G01 Z0
G00 Z2.0000
G00 X9.9771 Y50.5333
G01 Z-2.5000
G01 Z0
G00 Z2.0000
G00 X7.4371 Y50.5333
G01 Z-2.5000
G01 Z0
G00 Z2.0000
G00 X4.8971 Y50.5333
G01 Z-2.5000
G01 Z0
G00 Z2.0000
G00 X2.3571 Y50.5333
G01 Z-2.5000
G01 Z0
G00 Z2.0000
M05
G00 Z2.00
G00 X0.0 Y0.0


