(G-CODE GENERATED BY FLATCAM v8.994 - www.flatcam.org - Version Date: 2020/11/7)

(Name: Q1060-PCB Alimentação_drill.txt_cnc)
(Type: G-code from Geometry)
(Units: MM)

(Created on Saturday, 02 December 2023 at 14:35)

(This preprocessor is used with a motion controller loaded with GRBL firmware.)
(It is configured to be compatible with almost any version of GRBL firmware.)


(TOOLS DIAMETER: )
(Tool: 1 -> Dia: 3.1999936)
(Tool: 2 -> Dia: 0.9652)

(FEEDRATE Z: )
(Tool: 1 -> Feedrate: 10.0)
(Tool: 2 -> Feedrate: 10.0)

(FEEDRATE RAPIDS: )
(Tool: 1 -> Feedrate Rapids: 1500)
(Tool: 2 -> Feedrate Rapids: 1500)

(Z_CUT: )
(Tool: 1 -> Z_Cut: -2.5)
(Tool: 2 -> Z_Cut: -2.5)

(Tools Offset: )
(Tool: 2 -> Offset Z: 0.0)

(Z_MOVE: )
(Tool: 1 -> Z_Move: 2)
(Tool: 2 -> Z_Move: 2)

(Z Toolchange: 2.0 mm)
(X,Y Toolchange: 0.0000, 0.0000 mm)
(Z Start: None mm)
(Z End: 2.0 mm)
(X,Y End: 0.0000, 0.0000 mm)
(Steps per circle: 64)
(Steps per circle: 64)
(Preprocessor Excellon: GRBL_11_no_M6)

(X range:    1.5189 ...   35.5041  mm)
(Y range:    1.4455 ...   16.2281  mm)

(Spindle Speed: 0 RPM)
G21
G90
G17
G94


G01 F10.00

M5             
G00 Z2.0000
G00 X0.0000 Y0.0000                
T2
(MSG, Change to Tool Dia = 0.9652 ||| Total drills for tool T2 = 20)
M0
G00 Z2.0000
        
G01 F10.00
M03
G00 X18.5115 Y8.1255
G01 Z-2.5000
G01 Z0
G00 Z2.0000
G00 X18.5115 Y10.6655
G01 Z-2.5000
G01 Z0
G00 Z2.0000
G00 X10.8915 Y10.6655
G01 Z-2.5000
G01 Z0
G00 Z2.0000
G00 X10.8915 Y8.1255
G01 Z-2.5000
G01 Z0
G00 Z2.0000
G00 X3.2715 Y8.1255
G01 Z-2.5000
G01 Z0
G00 Z2.0000
G00 X3.2715 Y10.6655
G01 Z-2.5000
G01 Z0
G00 Z2.0000
G00 X2.0015 Y15.7455
G01 Z-2.5000
G01 Z0
G00 Z2.0000
G00 X4.5415 Y15.7455
G01 Z-2.5000
G01 Z0
G00 Z2.0000
G00 X9.6215 Y15.7455
G01 Z-2.5000
G01 Z0
G00 Z2.0000
G00 X12.1615 Y15.7455
G01 Z-2.5000
G01 Z0
G00 Z2.0000
G00 X17.2415 Y15.7455
G01 Z-2.5000
G01 Z0
G00 Z2.0000
G00 X19.7815 Y15.7455
G01 Z-2.5000
G01 Z0
G00 Z2.0000
G00 X24.8615 Y15.7455
G01 Z-2.5000
G01 Z0
G00 Z2.0000
G00 X27.4015 Y15.7455
G01 Z-2.5000
G01 Z0
G00 Z2.0000
G00 X32.4815 Y15.7455
G01 Z-2.5000
G01 Z0
G00 Z2.0000
G00 X35.0215 Y15.7455
G01 Z-2.5000
G01 Z0
G00 Z2.0000
G00 X33.7515 Y10.6655
G01 Z-2.5000
G01 Z0
G00 Z2.0000
G00 X33.7515 Y8.1255
G01 Z-2.5000
G01 Z0
G00 Z2.0000
G00 X26.1315 Y8.1255
G01 Z-2.5000
G01 Z0
G00 Z2.0000
G00 X26.1315 Y10.6655
G01 Z-2.5000
G01 Z0
G00 Z2.0000
M05
G00 Z2.00
G00 X0.0 Y0.0


