(G-CODE GENERATED BY FLATCAM v8.994 - www.flatcam.org - Version Date: 2020/11/7)

(Name: Q1060-PCB Alimentação_copperBottom.gbl_mt_paint_cnc)
(Type: G-code from Geometry)
(Units: MM)

(Created on Tuesday, 19 December 2023 at 12:05)

(This preprocessor is used with a motion controller loaded with GRBL firmware.)
(It is configured to be compatible with almost any version of GRBL firmware.)

(TOOL DIAMETER: 0.5 mm)
(Feedrate_XY: 120.0 mm/min)
(Feedrate_Z: 60.0 mm/min)
(Feedrate rapids 1500.0 mm/min)

(Z_Cut: 0.0 mm)
(Z_Move: 2.0 mm)
(Z Start: None mm)
(Z End: 3.0 mm)
(X,Y End: 0.0000, 0.0000 mm)
(Steps per circle: 64)
(Steps per circle: 64)
(Preprocessor Geometry: GRBL_11_no_M6)

(X range:    1.2409 ...   35.7415  mm)
(Y range:    7.3877 ...   18.6479  mm)

(Spindle Speed: 0.0 RPM)
G21
G90
G17
G94


G01 F120.00

M5             
G00 Z3.0000
G00 X0.0000 Y0.0000                
T2
(MSG, Change to Tool Dia = 0.5000)
M0
G00 Z3.0000
        
M03
G01 F120.00
G00 X3.3076 Y8.1691
G01 F60.00
G01 Z0.0000
G01 F120.00
G01 X3.3239 Y8.1490 F120.00
G01 X3.3419 Y8.1280 F120.00
G01 X3.3239 Y8.1070 F120.00
G01 X3.3076 Y8.0869 F120.00
G01 X3.3003 Y8.0789 F120.00
G01 X3.2953 Y8.0743 F120.00
G01 X3.2898 Y8.0702 F120.00
G01 X3.2840 Y8.0667 F120.00
G01 X3.2778 Y8.0638 F120.00
G01 X3.2714 Y8.0615 F120.00
G01 X3.2648 Y8.0598 F120.00
G01 X3.2580 Y8.0588 F120.00
G01 X3.2512 Y8.0585 F120.00
G01 X3.2444 Y8.0588 F120.00
G01 X3.2376 Y8.0598 F120.00
G01 X3.2310 Y8.0615 F120.00
G01 X3.2246 Y8.0638 F120.00
G01 X3.2184 Y8.0667 F120.00
G01 X3.2126 Y8.0702 F120.00
G01 X3.2071 Y8.0743 F120.00
G01 X3.2021 Y8.0789 F120.00
G01 X3.1975 Y8.0839 F120.00
G01 X3.1934 Y8.0894 F120.00
G01 X3.1899 Y8.0952 F120.00
G01 X3.1870 Y8.1014 F120.00
G01 X3.1847 Y8.1078 F120.00
G01 X3.1830 Y8.1144 F120.00
G01 X3.1820 Y8.1212 F120.00
G01 X3.1817 Y8.1280 F120.00
G01 X3.1820 Y8.1348 F120.00
G01 X3.1830 Y8.1416 F120.00
G01 X3.1847 Y8.1482 F120.00
G01 X3.1870 Y8.1546 F120.00
G01 X3.1899 Y8.1608 F120.00
G01 X3.1934 Y8.1666 F120.00
G01 X3.1975 Y8.1721 F120.00
G01 X3.2021 Y8.1771 F120.00
G01 X3.2071 Y8.1817 F120.00
G01 X3.2126 Y8.1858 F120.00
G01 X3.2184 Y8.1893 F120.00
G01 X3.2246 Y8.1922 F120.00
G01 X3.2310 Y8.1945 F120.00
G01 X3.2376 Y8.1962 F120.00
G01 X3.2444 Y8.1972 F120.00
G01 X3.2512 Y8.1975 F120.00
G01 X3.2580 Y8.1972 F120.00
G01 X3.2648 Y8.1962 F120.00
G01 X3.2714 Y8.1945 F120.00
G01 X3.2778 Y8.1922 F120.00
G01 X3.2840 Y8.1893 F120.00
G01 X3.2898 Y8.1858 F120.00
G01 X3.2953 Y8.1817 F120.00
G01 X3.3003 Y8.1771 F120.00
G01 X3.3076 Y8.1691 F120.00
G01 X3.5645 Y8.3845 F120.00
G01 X3.5767 Y8.3689 F120.00
G01 X3.5865 Y8.3573 F120.00
G01 X3.6068 Y8.3348 F120.00
G01 X3.6235 Y8.3179 F120.00
G01 X3.6346 Y8.3074 F120.00
G01 X3.6574 Y8.2875 F120.00
G01 X3.6812 Y8.2688 F120.00
G01 X3.7060 Y8.2513 F120.00
G01 X3.7316 Y8.2351 F120.00
G01 X3.7447 Y8.2276 F120.00
G01 X3.7638 Y8.2173 F120.00
G01 X3.7911 Y8.2042 F120.00
G01 X3.8191 Y8.1925 F120.00
G01 X3.8517 Y8.1809 F120.00
G01 X3.8850 Y8.1713 F120.00
G01 X3.9146 Y8.1646 F120.00
G01 X3.9444 Y8.1593 F120.00
G01 X3.9745 Y8.1556 F120.00
G01 X3.9896 Y8.1544 F120.00
G01 X4.0112 Y8.1532 F120.00
G01 X4.0307 Y8.1529 F120.00
G01 X10.0917 Y8.1529 F120.00
G01 X10.1177 Y8.1535 F120.00
G01 X10.1479 Y8.1556 F120.00
G01 X10.1780 Y8.1593 F120.00
G01 X10.2078 Y8.1646 F120.00
G01 X10.2374 Y8.1713 F120.00
G01 X10.2707 Y8.1809 F120.00
G01 X10.3033 Y8.1925 F120.00
G01 X10.3313 Y8.2042 F120.00
G01 X10.3586 Y8.2173 F120.00
G01 X10.3852 Y8.2319 F120.00
G01 X10.4037 Y8.2431 F120.00
G01 X10.4164 Y8.2513 F120.00
G01 X10.4412 Y8.2688 F120.00
G01 X10.4600 Y8.2834 F120.00
G01 X10.4717 Y8.2931 F120.00
G01 X10.4942 Y8.3134 F120.00
G01 X10.5096 Y8.3285 F120.00
G01 X10.5201 Y8.3395 F120.00
G01 X10.5401 Y8.3622 F120.00
G01 X10.5579 Y8.3845 F120.00
G01 X10.5849 Y8.4143 F120.00
G01 X10.6143 Y8.4410 F120.00
G01 X10.6463 Y8.4647 F120.00
G01 X10.6803 Y8.4851 F120.00
G01 X10.7163 Y8.5021 F120.00
G01 X10.7537 Y8.5155 F120.00
G01 X10.7922 Y8.5251 F120.00
G01 X10.8315 Y8.5309 F120.00
G01 X10.8712 Y8.5329 F120.00
G01 X10.9109 Y8.5309 F120.00
G01 X10.9502 Y8.5251 F120.00
G01 X10.9887 Y8.5155 F120.00
G01 X11.0261 Y8.5021 F120.00
G01 X11.0621 Y8.4851 F120.00
G01 X11.0961 Y8.4647 F120.00
G01 X11.1281 Y8.4410 F120.00
G01 X11.1575 Y8.4143 F120.00
G01 X11.1845 Y8.3845 F120.00
G01 X11.2023 Y8.3622 F120.00
G01 X11.2223 Y8.3395 F120.00
G01 X11.2328 Y8.3285 F120.00
G01 X11.2482 Y8.3134 F120.00
G01 X11.2707 Y8.2931 F120.00
G01 X11.2892 Y8.2780 F120.00
G01 X11.3012 Y8.2688 F120.00
G01 X11.3260 Y8.2513 F120.00
G01 X11.3442 Y8.2396 F120.00
G01 X11.3572 Y8.2319 F120.00
G01 X11.3838 Y8.2173 F120.00
G01 X11.4111 Y8.2042 F120.00
G01 X11.4391 Y8.1925 F120.00
G01 X11.4676 Y8.1823 F120.00
G01 X11.4966 Y8.1736 F120.00
G01 X11.5261 Y8.1663 F120.00
G01 X11.5558 Y8.1607 F120.00
G01 X11.5859 Y8.1565 F120.00
G01 X11.6161 Y8.1539 F120.00
G01 X11.6507 Y8.1529 F120.00
G01 X17.7225 Y8.1530 F120.00
G01 X17.7528 Y8.1544 F120.00
G01 X17.7830 Y8.1573 F120.00
G01 X17.8066 Y8.1607 F120.00
G01 X17.8215 Y8.1633 F120.00
G01 X17.8511 Y8.1698 F120.00
G01 X17.8720 Y8.1753 F120.00
G01 X17.8865 Y8.1796 F120.00
G01 X17.9152 Y8.1894 F120.00
G01 X17.9433 Y8.2007 F120.00
G01 X17.9709 Y8.2134 F120.00
G01 X18.0015 Y8.2297 F120.00
G01 X18.0182 Y8.2396 F120.00
G01 X18.0364 Y8.2513 F120.00
G01 X18.0612 Y8.2688 F120.00
G01 X18.0800 Y8.2834 F120.00
G01 X18.0917 Y8.2931 F120.00
G01 X18.1142 Y8.3134 F120.00
G01 X18.1296 Y8.3285 F120.00
G01 X18.1401 Y8.3395 F120.00
G01 X18.1601 Y8.3622 F120.00
G01 X18.1779 Y8.3845 F120.00
G01 X18.2049 Y8.4143 F120.00
G01 X18.2343 Y8.4410 F120.00
G01 X18.2663 Y8.4647 F120.00
G01 X18.3003 Y8.4851 F120.00
G01 X18.3363 Y8.5021 F120.00
G01 X18.3737 Y8.5155 F120.00
G01 X18.4122 Y8.5251 F120.00
G01 X18.4515 Y8.5309 F120.00
G01 X18.4912 Y8.5329 F120.00
G01 X18.5309 Y8.5309 F120.00
G01 X18.5702 Y8.5251 F120.00
G01 X18.6087 Y8.5155 F120.00
G01 X18.6461 Y8.5021 F120.00
G01 X18.6821 Y8.4851 F120.00
G01 X18.7161 Y8.4647 F120.00
G01 X18.7481 Y8.4410 F120.00
G01 X18.7775 Y8.4143 F120.00
G01 X18.8045 Y8.3845 F120.00
G01 X18.8223 Y8.3622 F120.00
G01 X18.8423 Y8.3395 F120.00
G01 X18.8528 Y8.3285 F120.00
G01 X18.8682 Y8.3134 F120.00
G01 X18.8907 Y8.2931 F120.00
G01 X18.9092 Y8.2780 F120.00
G01 X18.9212 Y8.2688 F120.00
G01 X18.9460 Y8.2513 F120.00
G01 X18.9642 Y8.2396 F120.00
G01 X18.9772 Y8.2319 F120.00
G01 X19.0038 Y8.2173 F120.00
G01 X19.0311 Y8.2042 F120.00
G01 X19.0591 Y8.1925 F120.00
G01 X19.0876 Y8.1823 F120.00
G01 X19.1166 Y8.1736 F120.00
G01 X19.1461 Y8.1663 F120.00
G01 X19.1758 Y8.1607 F120.00
G01 X19.2059 Y8.1565 F120.00
G01 X19.2361 Y8.1539 F120.00
G01 X19.2707 Y8.1529 F120.00
G01 X25.3425 Y8.1530 F120.00
G01 X25.3728 Y8.1544 F120.00
G01 X25.4030 Y8.1573 F120.00
G01 X25.4266 Y8.1607 F120.00
G01 X25.4415 Y8.1633 F120.00
G01 X25.4711 Y8.1698 F120.00
G01 X25.4920 Y8.1753 F120.00
G01 X25.5065 Y8.1796 F120.00
G01 X25.5352 Y8.1894 F120.00
G01 X25.5633 Y8.2007 F120.00
G01 X25.5909 Y8.2134 F120.00
G01 X25.6215 Y8.2297 F120.00
G01 X25.6382 Y8.2396 F120.00
G01 X25.6564 Y8.2513 F120.00
G01 X25.6812 Y8.2688 F120.00
G01 X25.7000 Y8.2834 F120.00
G01 X25.7117 Y8.2931 F120.00
G01 X25.7342 Y8.3134 F120.00
G01 X25.7496 Y8.3285 F120.00
G01 X25.7601 Y8.3395 F120.00
G01 X25.7801 Y8.3622 F120.00
G01 X25.7979 Y8.3845 F120.00
G01 X25.8249 Y8.4143 F120.00
G01 X25.8543 Y8.4410 F120.00
G01 X25.8863 Y8.4647 F120.00
G01 X25.9203 Y8.4851 F120.00
G01 X25.9563 Y8.5021 F120.00
G01 X25.9937 Y8.5155 F120.00
G01 X26.0322 Y8.5251 F120.00
G01 X26.0715 Y8.5309 F120.00
G01 X26.1112 Y8.5329 F120.00
G01 X26.1509 Y8.5309 F120.00
G01 X26.1902 Y8.5251 F120.00
G01 X26.2287 Y8.5155 F120.00
G01 X26.2661 Y8.5021 F120.00
G01 X26.3021 Y8.4851 F120.00
G01 X26.3361 Y8.4647 F120.00
G01 X26.3681 Y8.4410 F120.00
G01 X26.3975 Y8.4143 F120.00
G01 X26.4245 Y8.3845 F120.00
G01 X26.4423 Y8.3622 F120.00
G01 X26.4623 Y8.3395 F120.00
G01 X26.4728 Y8.3285 F120.00
G01 X26.4882 Y8.3134 F120.00
G01 X26.5107 Y8.2931 F120.00
G01 X26.5292 Y8.2780 F120.00
G01 X26.5412 Y8.2688 F120.00
G01 X26.5660 Y8.2513 F120.00
G01 X26.5842 Y8.2396 F120.00
G01 X26.5972 Y8.2319 F120.00
G01 X26.6238 Y8.2173 F120.00
G01 X26.6511 Y8.2042 F120.00
G01 X26.6791 Y8.1925 F120.00
G01 X26.7076 Y8.1823 F120.00
G01 X26.7366 Y8.1736 F120.00
G01 X26.7661 Y8.1663 F120.00
G01 X26.7958 Y8.1607 F120.00
G01 X26.8259 Y8.1565 F120.00
G01 X26.8561 Y8.1539 F120.00
G01 X26.8907 Y8.1529 F120.00
G01 X32.9561 Y8.1529 F120.00
G01 X32.9777 Y8.1535 F120.00
G01 X32.9928 Y8.1544 F120.00
G01 X33.0230 Y8.1573 F120.00
G01 X33.0530 Y8.1617 F120.00
G01 X33.0827 Y8.1678 F120.00
G01 X33.1058 Y8.1736 F120.00
G01 X33.1203 Y8.1777 F120.00
G01 X33.1491 Y8.1872 F120.00
G01 X33.1774 Y8.1982 F120.00
G01 X33.1913 Y8.2042 F120.00
G01 X33.2109 Y8.2134 F120.00
G01 X33.2415 Y8.2297 F120.00
G01 X33.2710 Y8.2477 F120.00
G01 X33.2889 Y8.2599 F120.00
G01 X33.3012 Y8.2688 F120.00
G01 X33.3200 Y8.2834 F120.00
G01 X33.3317 Y8.2931 F120.00
G01 X33.3542 Y8.3134 F120.00
G01 X33.3696 Y8.3285 F120.00
G01 X33.3801 Y8.3395 F120.00
G01 X33.4001 Y8.3622 F120.00
G01 X33.4179 Y8.3845 F120.00
G01 X33.4449 Y8.4143 F120.00
G01 X33.4743 Y8.4410 F120.00
G01 X33.5063 Y8.4647 F120.00
G01 X33.5403 Y8.4851 F120.00
G01 X33.5763 Y8.5021 F120.00
G01 X33.6137 Y8.5155 F120.00
G01 X33.6522 Y8.5251 F120.00
G01 X33.6915 Y8.5309 F120.00
G01 X33.7312 Y8.5329 F120.00
G01 X33.7709 Y8.5309 F120.00
G01 X33.8102 Y8.5251 F120.00
G01 X33.8487 Y8.5155 F120.00
G01 X33.8861 Y8.5021 F120.00
G01 X33.9221 Y8.4851 F120.00
G01 X33.9561 Y8.4647 F120.00
G01 X33.9881 Y8.4410 F120.00
G01 X34.0175 Y8.4143 F120.00
G01 X34.0442 Y8.3849 F120.00
G01 X34.0679 Y8.3529 F120.00
G01 X34.0883 Y8.3189 F120.00
G01 X34.1053 Y8.2829 F120.00
G01 X34.1187 Y8.2455 F120.00
G01 X34.1283 Y8.2070 F120.00
G01 X34.1341 Y8.1677 F120.00
G01 X34.1361 Y8.1280 F120.00
G01 X34.1341 Y8.0883 F120.00
G01 X34.1283 Y8.0490 F120.00
G01 X34.1187 Y8.0105 F120.00
G01 X34.1053 Y7.9731 F120.00
G01 X34.0883 Y7.9371 F120.00
G01 X34.0679 Y7.9031 F120.00
G01 X34.0442 Y7.8711 F120.00
G01 X34.0175 Y7.8417 F120.00
G01 X33.9881 Y7.8150 F120.00
G01 X33.9561 Y7.7913 F120.00
G01 X33.9221 Y7.7709 F120.00
G01 X33.8861 Y7.7539 F120.00
G01 X33.8487 Y7.7405 F120.00
G01 X33.8102 Y7.7309 F120.00
G01 X33.7709 Y7.7251 F120.00
G01 X33.7312 Y7.7231 F120.00
G01 X33.6915 Y7.7251 F120.00
G01 X33.6522 Y7.7309 F120.00
G01 X33.6137 Y7.7405 F120.00
G01 X33.5763 Y7.7539 F120.00
G01 X33.5403 Y7.7709 F120.00
G01 X33.5063 Y7.7913 F120.00
G01 X33.4743 Y7.8150 F120.00
G01 X33.4449 Y7.8417 F120.00
G01 X33.4179 Y7.8715 F120.00
G01 X33.4001 Y7.8938 F120.00
G01 X33.3801 Y7.9165 F120.00
G01 X33.3696 Y7.9275 F120.00
G01 X33.3542 Y7.9426 F120.00
G01 X33.3317 Y7.9629 F120.00
G01 X33.3132 Y7.9780 F120.00
G01 X33.3012 Y7.9872 F120.00
G01 X33.2764 Y8.0047 F120.00
G01 X33.2582 Y8.0164 F120.00
G01 X33.2415 Y8.0263 F120.00
G01 X33.2109 Y8.0426 F120.00
G01 X33.1833 Y8.0553 F120.00
G01 X33.1693 Y8.0611 F120.00
G01 X33.1491 Y8.0688 F120.00
G01 X33.1203 Y8.0783 F120.00
G01 X33.0974 Y8.0847 F120.00
G01 X33.0827 Y8.0882 F120.00
G01 X33.0530 Y8.0943 F120.00
G01 X33.0316 Y8.0976 F120.00
G01 X33.0165 Y8.0995 F120.00
G01 X32.9863 Y8.1021 F120.00
G01 X32.9669 Y8.1029 F120.00
G01 X32.9517 Y8.1031 F120.00
G01 X26.8907 Y8.1031 F120.00
G01 X26.8561 Y8.1021 F120.00
G01 X26.8259 Y8.0995 F120.00
G01 X26.7958 Y8.0953 F120.00
G01 X26.7661 Y8.0897 F120.00
G01 X26.7366 Y8.0824 F120.00
G01 X26.7076 Y8.0737 F120.00
G01 X26.6791 Y8.0635 F120.00
G01 X26.6511 Y8.0518 F120.00
G01 X26.6238 Y8.0387 F120.00
G01 X26.5972 Y8.0241 F120.00
G01 X26.5842 Y8.0164 F120.00
G01 X26.5660 Y8.0047 F120.00
G01 X26.5412 Y7.9872 F120.00
G01 X26.5224 Y7.9726 F120.00
G01 X26.5107 Y7.9629 F120.00
G01 X26.4882 Y7.9426 F120.00
G01 X26.4728 Y7.9275 F120.00
G01 X26.4623 Y7.9165 F120.00
G01 X26.4423 Y7.8938 F120.00
G01 X26.4245 Y7.8715 F120.00
G01 X26.3975 Y7.8417 F120.00
G01 X26.3681 Y7.8150 F120.00
G01 X26.3361 Y7.7913 F120.00
G01 X26.3021 Y7.7709 F120.00
G01 X26.2661 Y7.7539 F120.00
G01 X26.2287 Y7.7405 F120.00
G01 X26.1902 Y7.7309 F120.00
G01 X26.1509 Y7.7251 F120.00
G01 X26.1112 Y7.7231 F120.00
G01 X26.0715 Y7.7251 F120.00
G01 X26.0322 Y7.7309 F120.00
G01 X25.9937 Y7.7405 F120.00
G01 X25.9563 Y7.7539 F120.00
G01 X25.9203 Y7.7709 F120.00
G01 X25.8863 Y7.7913 F120.00
G01 X25.8543 Y7.8150 F120.00
G01 X25.8249 Y7.8417 F120.00
G01 X25.7979 Y7.8715 F120.00
G01 X25.7801 Y7.8938 F120.00
G01 X25.7601 Y7.9165 F120.00
G01 X25.7451 Y7.9321 F120.00
G01 X25.7342 Y7.9426 F120.00
G01 X25.7117 Y7.9629 F120.00
G01 X25.7000 Y7.9726 F120.00
G01 X25.6812 Y7.9872 F120.00
G01 X25.6564 Y8.0047 F120.00
G01 X25.6382 Y8.0164 F120.00
G01 X25.6215 Y8.0263 F120.00
G01 X25.5909 Y8.0426 F120.00
G01 X25.5633 Y8.0553 F120.00
G01 X25.5433 Y8.0635 F120.00
G01 X25.5291 Y8.0688 F120.00
G01 X25.5003 Y8.0783 F120.00
G01 X25.4774 Y8.0847 F120.00
G01 X25.4627 Y8.0882 F120.00
G01 X25.4330 Y8.0943 F120.00
G01 X25.4116 Y8.0976 F120.00
G01 X25.3965 Y8.0995 F120.00
G01 X25.3663 Y8.1021 F120.00
G01 X25.3317 Y8.1031 F120.00
G01 X19.2707 Y8.1031 F120.00
G01 X19.2361 Y8.1021 F120.00
G01 X19.2059 Y8.0995 F120.00
G01 X19.1758 Y8.0953 F120.00
G01 X19.1461 Y8.0897 F120.00
G01 X19.1166 Y8.0824 F120.00
G01 X19.0876 Y8.0737 F120.00
G01 X19.0591 Y8.0635 F120.00
G01 X19.0311 Y8.0518 F120.00
G01 X19.0038 Y8.0387 F120.00
G01 X18.9772 Y8.0241 F120.00
G01 X18.9642 Y8.0164 F120.00
G01 X18.9460 Y8.0047 F120.00
G01 X18.9212 Y7.9872 F120.00
G01 X18.9024 Y7.9726 F120.00
G01 X18.8907 Y7.9629 F120.00
G01 X18.8682 Y7.9426 F120.00
G01 X18.8528 Y7.9275 F120.00
G01 X18.8423 Y7.9165 F120.00
G01 X18.8223 Y7.8938 F120.00
G01 X18.8045 Y7.8715 F120.00
G01 X18.7775 Y7.8417 F120.00
G01 X18.7481 Y7.8150 F120.00
G01 X18.7161 Y7.7913 F120.00
G01 X18.6821 Y7.7709 F120.00
G01 X18.6461 Y7.7539 F120.00
G01 X18.6087 Y7.7405 F120.00
G01 X18.5702 Y7.7309 F120.00
G01 X18.5309 Y7.7251 F120.00
G01 X18.4912 Y7.7231 F120.00
G01 X18.4515 Y7.7251 F120.00
G01 X18.4122 Y7.7309 F120.00
G01 X18.3737 Y7.7405 F120.00
G01 X18.3363 Y7.7539 F120.00
G01 X18.3003 Y7.7709 F120.00
G01 X18.2663 Y7.7913 F120.00
G01 X18.2343 Y7.8150 F120.00
G01 X18.2049 Y7.8417 F120.00
G01 X18.1779 Y7.8715 F120.00
G01 X18.1601 Y7.8938 F120.00
G01 X18.1401 Y7.9165 F120.00
G01 X18.1251 Y7.9321 F120.00
G01 X18.1142 Y7.9426 F120.00
G01 X18.0917 Y7.9629 F120.00
G01 X18.0732 Y7.9780 F120.00
G01 X18.0612 Y7.9872 F120.00
G01 X18.0489 Y7.9961 F120.00
G01 X18.0310 Y8.0083 F120.00
G01 X18.0015 Y8.0263 F120.00
G01 X17.9709 Y8.0426 F120.00
G01 X17.9433 Y8.0553 F120.00
G01 X17.9233 Y8.0635 F120.00
G01 X17.9091 Y8.0688 F120.00
G01 X17.8803 Y8.0783 F120.00
G01 X17.8511 Y8.0862 F120.00
G01 X17.8215 Y8.0927 F120.00
G01 X17.7980 Y8.0967 F120.00
G01 X17.7830 Y8.0987 F120.00
G01 X17.7528 Y8.1016 F120.00
G01 X17.7312 Y8.1028 F120.00
G01 X17.7161 Y8.1031 F120.00
G01 X11.6507 Y8.1031 F120.00
G01 X11.6161 Y8.1021 F120.00
G01 X11.5859 Y8.0995 F120.00
G01 X11.5558 Y8.0953 F120.00
G01 X11.5261 Y8.0897 F120.00
G01 X11.4966 Y8.0824 F120.00
G01 X11.4676 Y8.0737 F120.00
G01 X11.4391 Y8.0635 F120.00
G01 X11.4111 Y8.0518 F120.00
G01 X11.3838 Y8.0387 F120.00
G01 X11.3572 Y8.0241 F120.00
G01 X11.3442 Y8.0164 F120.00
G01 X11.3260 Y8.0047 F120.00
G01 X11.3012 Y7.9872 F120.00
G01 X11.2824 Y7.9726 F120.00
G01 X11.2707 Y7.9629 F120.00
G01 X11.2482 Y7.9426 F120.00
G01 X11.2328 Y7.9275 F120.00
G01 X11.2223 Y7.9165 F120.00
G01 X11.2023 Y7.8938 F120.00
G01 X11.1845 Y7.8715 F120.00
G01 X11.1575 Y7.8417 F120.00
G01 X11.1281 Y7.8150 F120.00
G01 X11.0961 Y7.7913 F120.00
G01 X11.0621 Y7.7709 F120.00
G01 X11.0261 Y7.7539 F120.00
G01 X10.9887 Y7.7405 F120.00
G01 X10.9502 Y7.7309 F120.00
G01 X10.9109 Y7.7251 F120.00
G01 X10.8712 Y7.7231 F120.00
G01 X10.8315 Y7.7251 F120.00
G01 X10.7922 Y7.7309 F120.00
G01 X10.7537 Y7.7405 F120.00
G01 X10.7163 Y7.7539 F120.00
G01 X10.6803 Y7.7709 F120.00
G01 X10.6463 Y7.7913 F120.00
G01 X10.6143 Y7.8150 F120.00
G01 X10.5849 Y7.8417 F120.00
G01 X10.5579 Y7.8715 F120.00
G01 X10.5401 Y7.8938 F120.00
G01 X10.5201 Y7.9165 F120.00
G01 X10.5096 Y7.9275 F120.00
G01 X10.4942 Y7.9426 F120.00
G01 X10.4717 Y7.9629 F120.00
G01 X10.4532 Y7.9780 F120.00
G01 X10.4412 Y7.9872 F120.00
G01 X10.4164 Y8.0047 F120.00
G01 X10.3982 Y8.0164 F120.00
G01 X10.3815 Y8.0263 F120.00
G01 X10.3509 Y8.0426 F120.00
G01 X10.3233 Y8.0553 F120.00
G01 X10.2952 Y8.0666 F120.00
G01 X10.2665 Y8.0764 F120.00
G01 X10.2520 Y8.0807 F120.00
G01 X10.2311 Y8.0862 F120.00
G01 X10.2015 Y8.0927 F120.00
G01 X10.1716 Y8.0976 F120.00
G01 X10.1415 Y8.1010 F120.00
G01 X10.1263 Y8.1021 F120.00
G01 X10.1025 Y8.1030 F120.00
G01 X4.0307 Y8.1031 F120.00
G01 X4.0112 Y8.1028 F120.00
G01 X3.9809 Y8.1010 F120.00
G01 X3.9659 Y8.0995 F120.00
G01 X3.9444 Y8.0967 F120.00
G01 X3.9103 Y8.0906 F120.00
G01 X3.8766 Y8.0824 F120.00
G01 X3.8476 Y8.0737 F120.00
G01 X3.8333 Y8.0688 F120.00
G01 X3.8131 Y8.0611 F120.00
G01 X3.7852 Y8.0491 F120.00
G01 X3.7715 Y8.0426 F120.00
G01 X3.7504 Y8.0316 F120.00
G01 X3.7242 Y8.0164 F120.00
G01 X3.7060 Y8.0047 F120.00
G01 X3.6935 Y7.9961 F120.00
G01 X3.6692 Y7.9780 F120.00
G01 X3.6426 Y7.9558 F120.00
G01 X3.6235 Y7.9381 F120.00
G01 X3.5994 Y7.9133 F120.00
G01 X3.5823 Y7.8938 F120.00
G01 X3.5645 Y7.8715 F120.00
G01 X3.5375 Y7.8417 F120.00
G01 X3.5081 Y7.8150 F120.00
G01 X3.4761 Y7.7913 F120.00
G01 X3.4421 Y7.7709 F120.00
G01 X3.4061 Y7.7539 F120.00
G01 X3.3687 Y7.7405 F120.00
G01 X3.3302 Y7.7309 F120.00
G01 X3.2909 Y7.7251 F120.00
G01 X3.2512 Y7.7231 F120.00
G01 X3.2115 Y7.7251 F120.00
G01 X3.1722 Y7.7309 F120.00
G01 X3.1337 Y7.7405 F120.00
G01 X3.0963 Y7.7539 F120.00
G01 X3.0603 Y7.7709 F120.00
G01 X3.0263 Y7.7913 F120.00
G01 X2.9943 Y7.8150 F120.00
G01 X2.9649 Y7.8417 F120.00
G01 X2.9382 Y7.8711 F120.00
G01 X2.9145 Y7.9031 F120.00
G01 X2.8941 Y7.9371 F120.00
G01 X2.8771 Y7.9731 F120.00
G01 X2.8637 Y8.0105 F120.00
G01 X2.8541 Y8.0490 F120.00
G01 X2.8483 Y8.0883 F120.00
G01 X2.8463 Y8.1280 F120.00
G01 X2.8483 Y8.1677 F120.00
G01 X2.8541 Y8.2070 F120.00
G01 X2.8637 Y8.2455 F120.00
G01 X2.8771 Y8.2829 F120.00
G01 X2.8941 Y8.3189 F120.00
G01 X2.9145 Y8.3529 F120.00
G01 X2.9382 Y8.3849 F120.00
G01 X2.9649 Y8.4143 F120.00
G01 X2.9943 Y8.4410 F120.00
G01 X3.0263 Y8.4647 F120.00
G01 X3.0603 Y8.4851 F120.00
G01 X3.0963 Y8.5021 F120.00
G01 X3.1337 Y8.5155 F120.00
G01 X3.1722 Y8.5251 F120.00
G01 X3.2115 Y8.5309 F120.00
G01 X3.2512 Y8.5329 F120.00
G01 X3.2909 Y8.5309 F120.00
G01 X3.3302 Y8.5251 F120.00
G01 X3.3687 Y8.5155 F120.00
G01 X3.4061 Y8.5021 F120.00
G01 X3.4421 Y8.4851 F120.00
G01 X3.4761 Y8.4647 F120.00
G01 X3.5081 Y8.4410 F120.00
G01 X3.5375 Y8.4143 F120.00
G01 X3.5645 Y8.3845 F120.00
G00 Z2.0000
G00 X3.3076 Y10.7091
G01 F60.00
G01 Z0.0000
G01 F120.00
G01 X3.3239 Y10.6890 F120.00
G01 X3.3419 Y10.6680 F120.00
G01 X3.3239 Y10.6470 F120.00
G01 X3.3076 Y10.6269 F120.00
G01 X3.3003 Y10.6189 F120.00
G01 X3.2953 Y10.6143 F120.00
G01 X3.2898 Y10.6102 F120.00
G01 X3.2840 Y10.6067 F120.00
G01 X3.2778 Y10.6038 F120.00
G01 X3.2714 Y10.6015 F120.00
G01 X3.2648 Y10.5998 F120.00
G01 X3.2580 Y10.5988 F120.00
G01 X3.2512 Y10.5985 F120.00
G01 X3.2444 Y10.5988 F120.00
G01 X3.2376 Y10.5998 F120.00
G01 X3.2310 Y10.6015 F120.00
G01 X3.2246 Y10.6038 F120.00
G01 X3.2184 Y10.6067 F120.00
G01 X3.2126 Y10.6102 F120.00
G01 X3.2071 Y10.6143 F120.00
G01 X3.2021 Y10.6189 F120.00
G01 X3.1975 Y10.6239 F120.00
G01 X3.1934 Y10.6294 F120.00
G01 X3.1899 Y10.6352 F120.00
G01 X3.1870 Y10.6414 F120.00
G01 X3.1847 Y10.6478 F120.00
G01 X3.1830 Y10.6544 F120.00
G01 X3.1820 Y10.6612 F120.00
G01 X3.1817 Y10.6680 F120.00
G01 X3.1820 Y10.6748 F120.00
G01 X3.1830 Y10.6816 F120.00
G01 X3.1847 Y10.6882 F120.00
G01 X3.1870 Y10.6946 F120.00
G01 X3.1899 Y10.7008 F120.00
G01 X3.1934 Y10.7066 F120.00
G01 X3.1975 Y10.7121 F120.00
G01 X3.2021 Y10.7171 F120.00
G01 X3.2071 Y10.7217 F120.00
G01 X3.2126 Y10.7258 F120.00
G01 X3.2184 Y10.7293 F120.00
G01 X3.2246 Y10.7322 F120.00
G01 X3.2310 Y10.7345 F120.00
G01 X3.2376 Y10.7362 F120.00
G01 X3.2444 Y10.7372 F120.00
G01 X3.2512 Y10.7375 F120.00
G01 X3.2580 Y10.7372 F120.00
G01 X3.2648 Y10.7362 F120.00
G01 X3.2714 Y10.7345 F120.00
G01 X3.2778 Y10.7322 F120.00
G01 X3.2840 Y10.7293 F120.00
G01 X3.2898 Y10.7258 F120.00
G01 X3.2953 Y10.7217 F120.00
G01 X3.3003 Y10.7171 F120.00
G01 X3.3076 Y10.7091 F120.00
G01 X3.5645 Y10.9245 F120.00
G01 X3.5767 Y10.9089 F120.00
G01 X3.5865 Y10.8973 F120.00
G01 X3.6068 Y10.8748 F120.00
G01 X3.6235 Y10.8579 F120.00
G01 X3.6346 Y10.8474 F120.00
G01 X3.6574 Y10.8275 F120.00
G01 X3.6812 Y10.8088 F120.00
G01 X3.7060 Y10.7913 F120.00
G01 X3.7242 Y10.7796 F120.00
G01 X3.7372 Y10.7719 F120.00
G01 X3.7638 Y10.7573 F120.00
G01 X3.7911 Y10.7442 F120.00
G01 X3.8191 Y10.7325 F120.00
G01 X3.8517 Y10.7209 F120.00
G01 X3.8850 Y10.7113 F120.00
G01 X3.9146 Y10.7046 F120.00
G01 X3.9444 Y10.6993 F120.00
G01 X3.9745 Y10.6956 F120.00
G01 X3.9896 Y10.6944 F120.00
G01 X4.0112 Y10.6932 F120.00
G01 X4.0307 Y10.6929 F120.00
G01 X10.0917 Y10.6929 F120.00
G01 X10.1177 Y10.6935 F120.00
G01 X10.1479 Y10.6956 F120.00
G01 X10.1780 Y10.6993 F120.00
G01 X10.2078 Y10.7046 F120.00
G01 X10.2374 Y10.7113 F120.00
G01 X10.2665 Y10.7196 F120.00
G01 X10.2952 Y10.7294 F120.00
G01 X10.3273 Y10.7424 F120.00
G01 X10.3586 Y10.7573 F120.00
G01 X10.3852 Y10.7719 F120.00
G01 X10.4037 Y10.7831 F120.00
G01 X10.4164 Y10.7913 F120.00
G01 X10.4412 Y10.8088 F120.00
G01 X10.4600 Y10.8234 F120.00
G01 X10.4717 Y10.8331 F120.00
G01 X10.4942 Y10.8534 F120.00
G01 X10.5096 Y10.8685 F120.00
G01 X10.5201 Y10.8795 F120.00
G01 X10.5401 Y10.9022 F120.00
G01 X10.5579 Y10.9245 F120.00
G01 X10.5849 Y10.9543 F120.00
G01 X10.6143 Y10.9810 F120.00
G01 X10.6463 Y11.0047 F120.00
G01 X10.6803 Y11.0251 F120.00
G01 X10.7163 Y11.0421 F120.00
G01 X10.7537 Y11.0555 F120.00
G01 X10.7922 Y11.0651 F120.00
G01 X10.8315 Y11.0709 F120.00
G01 X10.8712 Y11.0729 F120.00
G01 X10.9109 Y11.0709 F120.00
G01 X10.9502 Y11.0651 F120.00
G01 X10.9887 Y11.0555 F120.00
G01 X11.0261 Y11.0421 F120.00
G01 X11.0621 Y11.0251 F120.00
G01 X11.0961 Y11.0047 F120.00
G01 X11.1281 Y10.9810 F120.00
G01 X11.1575 Y10.9543 F120.00
G01 X11.1845 Y10.9245 F120.00
G01 X11.2023 Y10.9022 F120.00
G01 X11.2223 Y10.8795 F120.00
G01 X11.2328 Y10.8685 F120.00
G01 X11.2482 Y10.8534 F120.00
G01 X11.2707 Y10.8331 F120.00
G01 X11.2892 Y10.8180 F120.00
G01 X11.3012 Y10.8088 F120.00
G01 X11.3260 Y10.7913 F120.00
G01 X11.3442 Y10.7796 F120.00
G01 X11.3572 Y10.7719 F120.00
G01 X11.3838 Y10.7573 F120.00
G01 X11.4111 Y10.7442 F120.00
G01 X11.4391 Y10.7325 F120.00
G01 X11.4676 Y10.7223 F120.00
G01 X11.4966 Y10.7136 F120.00
G01 X11.5261 Y10.7063 F120.00
G01 X11.5558 Y10.7007 F120.00
G01 X11.5859 Y10.6965 F120.00
G01 X11.6161 Y10.6939 F120.00
G01 X11.6507 Y10.6929 F120.00
G01 X17.7225 Y10.6930 F120.00
G01 X17.7528 Y10.6944 F120.00
G01 X17.7830 Y10.6973 F120.00
G01 X17.8066 Y10.7007 F120.00
G01 X17.8215 Y10.7033 F120.00
G01 X17.8511 Y10.7098 F120.00
G01 X17.8720 Y10.7153 F120.00
G01 X17.8865 Y10.7196 F120.00
G01 X17.9152 Y10.7294 F120.00
G01 X17.9433 Y10.7407 F120.00
G01 X17.9709 Y10.7534 F120.00
G01 X18.0015 Y10.7697 F120.00
G01 X18.0182 Y10.7796 F120.00
G01 X18.0364 Y10.7913 F120.00
G01 X18.0612 Y10.8088 F120.00
G01 X18.0800 Y10.8234 F120.00
G01 X18.0917 Y10.8331 F120.00
G01 X18.1142 Y10.8534 F120.00
G01 X18.1296 Y10.8685 F120.00
G01 X18.1401 Y10.8795 F120.00
G01 X18.1601 Y10.9022 F120.00
G01 X18.1779 Y10.9245 F120.00
G01 X18.2049 Y10.9543 F120.00
G01 X18.2343 Y10.9810 F120.00
G01 X18.2663 Y11.0047 F120.00
G01 X18.3003 Y11.0251 F120.00
G01 X18.3363 Y11.0421 F120.00
G01 X18.3737 Y11.0555 F120.00
G01 X18.4122 Y11.0651 F120.00
G01 X18.4515 Y11.0709 F120.00
G01 X18.4912 Y11.0729 F120.00
G01 X18.5309 Y11.0709 F120.00
G01 X18.5702 Y11.0651 F120.00
G01 X18.6087 Y11.0555 F120.00
G01 X18.6461 Y11.0421 F120.00
G01 X18.6821 Y11.0251 F120.00
G01 X18.7161 Y11.0047 F120.00
G01 X18.7481 Y10.9810 F120.00
G01 X18.7775 Y10.9543 F120.00
G01 X18.8045 Y10.9245 F120.00
G01 X18.8223 Y10.9022 F120.00
G01 X18.8423 Y10.8795 F120.00
G01 X18.8528 Y10.8685 F120.00
G01 X18.8682 Y10.8534 F120.00
G01 X18.8907 Y10.8331 F120.00
G01 X18.9092 Y10.8180 F120.00
G01 X18.9212 Y10.8088 F120.00
G01 X18.9460 Y10.7913 F120.00
G01 X18.9642 Y10.7796 F120.00
G01 X18.9772 Y10.7719 F120.00
G01 X19.0038 Y10.7573 F120.00
G01 X19.0311 Y10.7442 F120.00
G01 X19.0591 Y10.7325 F120.00
G01 X19.0876 Y10.7223 F120.00
G01 X19.1166 Y10.7136 F120.00
G01 X19.1461 Y10.7063 F120.00
G01 X19.1758 Y10.7007 F120.00
G01 X19.2059 Y10.6965 F120.00
G01 X19.2361 Y10.6939 F120.00
G01 X19.2707 Y10.6929 F120.00
G01 X25.3425 Y10.6930 F120.00
G01 X25.3728 Y10.6944 F120.00
G01 X25.4030 Y10.6973 F120.00
G01 X25.4266 Y10.7007 F120.00
G01 X25.4415 Y10.7033 F120.00
G01 X25.4711 Y10.7098 F120.00
G01 X25.4920 Y10.7153 F120.00
G01 X25.5065 Y10.7196 F120.00
G01 X25.5352 Y10.7294 F120.00
G01 X25.5633 Y10.7407 F120.00
G01 X25.5909 Y10.7534 F120.00
G01 X25.6215 Y10.7697 F120.00
G01 X25.6382 Y10.7796 F120.00
G01 X25.6564 Y10.7913 F120.00
G01 X25.6812 Y10.8088 F120.00
G01 X25.7000 Y10.8234 F120.00
G01 X25.7117 Y10.8331 F120.00
G01 X25.7342 Y10.8534 F120.00
G01 X25.7496 Y10.8685 F120.00
G01 X25.7601 Y10.8795 F120.00
G01 X25.7801 Y10.9022 F120.00
G01 X25.7979 Y10.9245 F120.00
G01 X25.8249 Y10.9543 F120.00
G01 X25.8543 Y10.9810 F120.00
G01 X25.8863 Y11.0047 F120.00
G01 X25.9203 Y11.0251 F120.00
G01 X25.9563 Y11.0421 F120.00
G01 X25.9937 Y11.0555 F120.00
G01 X26.0322 Y11.0651 F120.00
G01 X26.0715 Y11.0709 F120.00
G01 X26.1112 Y11.0729 F120.00
G01 X26.1509 Y11.0709 F120.00
G01 X26.1902 Y11.0651 F120.00
G01 X26.2287 Y11.0555 F120.00
G01 X26.2661 Y11.0421 F120.00
G01 X26.3021 Y11.0251 F120.00
G01 X26.3361 Y11.0047 F120.00
G01 X26.3681 Y10.9810 F120.00
G01 X26.3975 Y10.9543 F120.00
G01 X26.4245 Y10.9245 F120.00
G01 X26.4423 Y10.9022 F120.00
G01 X26.4623 Y10.8795 F120.00
G01 X26.4728 Y10.8685 F120.00
G01 X26.4882 Y10.8534 F120.00
G01 X26.5107 Y10.8331 F120.00
G01 X26.5292 Y10.8180 F120.00
G01 X26.5412 Y10.8088 F120.00
G01 X26.5660 Y10.7913 F120.00
G01 X26.5842 Y10.7796 F120.00
G01 X26.5972 Y10.7719 F120.00
G01 X26.6238 Y10.7573 F120.00
G01 X26.6511 Y10.7442 F120.00
G01 X26.6791 Y10.7325 F120.00
G01 X26.7076 Y10.7223 F120.00
G01 X26.7366 Y10.7136 F120.00
G01 X26.7661 Y10.7063 F120.00
G01 X26.7958 Y10.7007 F120.00
G01 X26.8259 Y10.6965 F120.00
G01 X26.8561 Y10.6939 F120.00
G01 X26.8907 Y10.6929 F120.00
G01 X32.9561 Y10.6929 F120.00
G01 X32.9777 Y10.6935 F120.00
G01 X32.9928 Y10.6944 F120.00
G01 X33.0230 Y10.6973 F120.00
G01 X33.0530 Y10.7017 F120.00
G01 X33.0827 Y10.7078 F120.00
G01 X33.1058 Y10.7136 F120.00
G01 X33.1203 Y10.7177 F120.00
G01 X33.1491 Y10.7272 F120.00
G01 X33.1774 Y10.7382 F120.00
G01 X33.1913 Y10.7442 F120.00
G01 X33.2109 Y10.7534 F120.00
G01 X33.2415 Y10.7697 F120.00
G01 X33.2710 Y10.7877 F120.00
G01 X33.2889 Y10.7999 F120.00
G01 X33.3012 Y10.8088 F120.00
G01 X33.3200 Y10.8234 F120.00
G01 X33.3317 Y10.8331 F120.00
G01 X33.3542 Y10.8534 F120.00
G01 X33.3696 Y10.8685 F120.00
G01 X33.3801 Y10.8795 F120.00
G01 X33.4001 Y10.9022 F120.00
G01 X33.4179 Y10.9245 F120.00
G01 X33.4449 Y10.9543 F120.00
G01 X33.4743 Y10.9810 F120.00
G01 X33.5063 Y11.0047 F120.00
G01 X33.5403 Y11.0251 F120.00
G01 X33.5763 Y11.0421 F120.00
G01 X33.6137 Y11.0555 F120.00
G01 X33.6522 Y11.0651 F120.00
G01 X33.6915 Y11.0709 F120.00
G01 X33.7312 Y11.0729 F120.00
G01 X33.7709 Y11.0709 F120.00
G01 X33.8102 Y11.0651 F120.00
G01 X33.8487 Y11.0555 F120.00
G01 X33.8861 Y11.0421 F120.00
G01 X33.9221 Y11.0251 F120.00
G01 X33.9561 Y11.0047 F120.00
G01 X33.9881 Y10.9810 F120.00
G01 X34.0175 Y10.9543 F120.00
G01 X34.0442 Y10.9249 F120.00
G01 X34.0679 Y10.8929 F120.00
G01 X34.0883 Y10.8589 F120.00
G01 X34.1053 Y10.8229 F120.00
G01 X34.1187 Y10.7855 F120.00
G01 X34.1283 Y10.7470 F120.00
G01 X34.1341 Y10.7077 F120.00
G01 X34.1361 Y10.6680 F120.00
G01 X34.1341 Y10.6283 F120.00
G01 X34.1283 Y10.5890 F120.00
G01 X34.1187 Y10.5505 F120.00
G01 X34.1053 Y10.5131 F120.00
G01 X34.0883 Y10.4771 F120.00
G01 X34.0679 Y10.4431 F120.00
G01 X34.0442 Y10.4111 F120.00
G01 X34.0175 Y10.3817 F120.00
G01 X33.9881 Y10.3550 F120.00
G01 X33.9561 Y10.3313 F120.00
G01 X33.9221 Y10.3109 F120.00
G01 X33.8861 Y10.2939 F120.00
G01 X33.8487 Y10.2805 F120.00
G01 X33.8102 Y10.2709 F120.00
G01 X33.7709 Y10.2651 F120.00
G01 X33.7312 Y10.2631 F120.00
G01 X33.6915 Y10.2651 F120.00
G01 X33.6522 Y10.2709 F120.00
G01 X33.6137 Y10.2805 F120.00
G01 X33.5763 Y10.2939 F120.00
G01 X33.5403 Y10.3109 F120.00
G01 X33.5063 Y10.3313 F120.00
G01 X33.4743 Y10.3550 F120.00
G01 X33.4449 Y10.3817 F120.00
G01 X33.4179 Y10.4115 F120.00
G01 X33.4001 Y10.4338 F120.00
G01 X33.3801 Y10.4565 F120.00
G01 X33.3696 Y10.4675 F120.00
G01 X33.3542 Y10.4826 F120.00
G01 X33.3317 Y10.5029 F120.00
G01 X33.3132 Y10.5180 F120.00
G01 X33.3012 Y10.5272 F120.00
G01 X33.2764 Y10.5447 F120.00
G01 X33.2582 Y10.5564 F120.00
G01 X33.2415 Y10.5663 F120.00
G01 X33.2109 Y10.5826 F120.00
G01 X33.1833 Y10.5953 F120.00
G01 X33.1693 Y10.6011 F120.00
G01 X33.1491 Y10.6088 F120.00
G01 X33.1203 Y10.6183 F120.00
G01 X33.0974 Y10.6247 F120.00
G01 X33.0827 Y10.6282 F120.00
G01 X33.0530 Y10.6343 F120.00
G01 X33.0316 Y10.6376 F120.00
G01 X33.0165 Y10.6395 F120.00
G01 X32.9863 Y10.6421 F120.00
G01 X32.9669 Y10.6429 F120.00
G01 X32.9517 Y10.6431 F120.00
G01 X26.8907 Y10.6431 F120.00
G01 X26.8561 Y10.6421 F120.00
G01 X26.8259 Y10.6395 F120.00
G01 X26.7958 Y10.6353 F120.00
G01 X26.7661 Y10.6297 F120.00
G01 X26.7366 Y10.6224 F120.00
G01 X26.7076 Y10.6137 F120.00
G01 X26.6791 Y10.6035 F120.00
G01 X26.6511 Y10.5918 F120.00
G01 X26.6238 Y10.5787 F120.00
G01 X26.5972 Y10.5641 F120.00
G01 X26.5842 Y10.5564 F120.00
G01 X26.5660 Y10.5447 F120.00
G01 X26.5412 Y10.5272 F120.00
G01 X26.5224 Y10.5126 F120.00
G01 X26.5107 Y10.5029 F120.00
G01 X26.4882 Y10.4826 F120.00
G01 X26.4728 Y10.4675 F120.00
G01 X26.4623 Y10.4565 F120.00
G01 X26.4423 Y10.4338 F120.00
G01 X26.4245 Y10.4115 F120.00
G01 X26.3975 Y10.3817 F120.00
G01 X26.3681 Y10.3550 F120.00
G01 X26.3361 Y10.3313 F120.00
G01 X26.3021 Y10.3109 F120.00
G01 X26.2661 Y10.2939 F120.00
G01 X26.2287 Y10.2805 F120.00
G01 X26.1902 Y10.2709 F120.00
G01 X26.1509 Y10.2651 F120.00
G01 X26.1112 Y10.2631 F120.00
G01 X26.0715 Y10.2651 F120.00
G01 X26.0322 Y10.2709 F120.00
G01 X25.9937 Y10.2805 F120.00
G01 X25.9563 Y10.2939 F120.00
G01 X25.9203 Y10.3109 F120.00
G01 X25.8863 Y10.3313 F120.00
G01 X25.8543 Y10.3550 F120.00
G01 X25.8249 Y10.3817 F120.00
G01 X25.7979 Y10.4115 F120.00
G01 X25.7801 Y10.4338 F120.00
G01 X25.7601 Y10.4565 F120.00
G01 X25.7451 Y10.4721 F120.00
G01 X25.7342 Y10.4826 F120.00
G01 X25.7117 Y10.5029 F120.00
G01 X25.7000 Y10.5126 F120.00
G01 X25.6812 Y10.5272 F120.00
G01 X25.6564 Y10.5447 F120.00
G01 X25.6382 Y10.5564 F120.00
G01 X25.6215 Y10.5663 F120.00
G01 X25.5909 Y10.5826 F120.00
G01 X25.5633 Y10.5953 F120.00
G01 X25.5433 Y10.6035 F120.00
G01 X25.5291 Y10.6088 F120.00
G01 X25.5003 Y10.6183 F120.00
G01 X25.4774 Y10.6247 F120.00
G01 X25.4627 Y10.6282 F120.00
G01 X25.4330 Y10.6343 F120.00
G01 X25.4116 Y10.6376 F120.00
G01 X25.3965 Y10.6395 F120.00
G01 X25.3663 Y10.6421 F120.00
G01 X25.3317 Y10.6431 F120.00
G01 X19.2707 Y10.6431 F120.00
G01 X19.2361 Y10.6421 F120.00
G01 X19.2059 Y10.6395 F120.00
G01 X19.1758 Y10.6353 F120.00
G01 X19.1461 Y10.6297 F120.00
G01 X19.1166 Y10.6224 F120.00
G01 X19.0876 Y10.6137 F120.00
G01 X19.0591 Y10.6035 F120.00
G01 X19.0311 Y10.5918 F120.00
G01 X19.0038 Y10.5787 F120.00
G01 X18.9772 Y10.5641 F120.00
G01 X18.9642 Y10.5564 F120.00
G01 X18.9460 Y10.5447 F120.00
G01 X18.9212 Y10.5272 F120.00
G01 X18.9092 Y10.5180 F120.00
G01 X18.8907 Y10.5029 F120.00
G01 X18.8682 Y10.4826 F120.00
G01 X18.8528 Y10.4675 F120.00
G01 X18.8423 Y10.4565 F120.00
G01 X18.8223 Y10.4338 F120.00
G01 X18.8045 Y10.4115 F120.00
G01 X18.7775 Y10.3817 F120.00
G01 X18.7481 Y10.3550 F120.00
G01 X18.7161 Y10.3313 F120.00
G01 X18.6821 Y10.3109 F120.00
G01 X18.6461 Y10.2939 F120.00
G01 X18.6087 Y10.2805 F120.00
G01 X18.5702 Y10.2709 F120.00
G01 X18.5309 Y10.2651 F120.00
G01 X18.4912 Y10.2631 F120.00
G01 X18.4515 Y10.2651 F120.00
G01 X18.4122 Y10.2709 F120.00
G01 X18.3737 Y10.2805 F120.00
G01 X18.3363 Y10.2939 F120.00
G01 X18.3003 Y10.3109 F120.00
G01 X18.2663 Y10.3313 F120.00
G01 X18.2343 Y10.3550 F120.00
G01 X18.2049 Y10.3817 F120.00
G01 X18.1779 Y10.4115 F120.00
G01 X18.1601 Y10.4338 F120.00
G01 X18.1401 Y10.4565 F120.00
G01 X18.1251 Y10.4721 F120.00
G01 X18.1142 Y10.4826 F120.00
G01 X18.0917 Y10.5029 F120.00
G01 X18.0732 Y10.5180 F120.00
G01 X18.0612 Y10.5272 F120.00
G01 X18.0489 Y10.5361 F120.00
G01 X18.0310 Y10.5483 F120.00
G01 X18.0015 Y10.5663 F120.00
G01 X17.9709 Y10.5826 F120.00
G01 X17.9433 Y10.5953 F120.00
G01 X17.9233 Y10.6035 F120.00
G01 X17.9091 Y10.6088 F120.00
G01 X17.8803 Y10.6183 F120.00
G01 X17.8511 Y10.6262 F120.00
G01 X17.8215 Y10.6327 F120.00
G01 X17.7980 Y10.6367 F120.00
G01 X17.7830 Y10.6387 F120.00
G01 X17.7528 Y10.6416 F120.00
G01 X17.7312 Y10.6428 F120.00
G01 X17.7161 Y10.6431 F120.00
G01 X11.6507 Y10.6431 F120.00
G01 X11.6161 Y10.6421 F120.00
G01 X11.5859 Y10.6395 F120.00
G01 X11.5558 Y10.6353 F120.00
G01 X11.5261 Y10.6297 F120.00
G01 X11.4966 Y10.6224 F120.00
G01 X11.4676 Y10.6137 F120.00
G01 X11.4391 Y10.6035 F120.00
G01 X11.4111 Y10.5918 F120.00
G01 X11.3838 Y10.5787 F120.00
G01 X11.3572 Y10.5641 F120.00
G01 X11.3442 Y10.5564 F120.00
G01 X11.3260 Y10.5447 F120.00
G01 X11.3012 Y10.5272 F120.00
G01 X11.2824 Y10.5126 F120.00
G01 X11.2707 Y10.5029 F120.00
G01 X11.2482 Y10.4826 F120.00
G01 X11.2328 Y10.4675 F120.00
G01 X11.2223 Y10.4565 F120.00
G01 X11.2023 Y10.4338 F120.00
G01 X11.1845 Y10.4115 F120.00
G01 X11.1575 Y10.3817 F120.00
G01 X11.1281 Y10.3550 F120.00
G01 X11.0961 Y10.3313 F120.00
G01 X11.0621 Y10.3109 F120.00
G01 X11.0261 Y10.2939 F120.00
G01 X10.9887 Y10.2805 F120.00
G01 X10.9502 Y10.2709 F120.00
G01 X10.9109 Y10.2651 F120.00
G01 X10.8712 Y10.2631 F120.00
G01 X10.8315 Y10.2651 F120.00
G01 X10.7922 Y10.2709 F120.00
G01 X10.7537 Y10.2805 F120.00
G01 X10.7163 Y10.2939 F120.00
G01 X10.6803 Y10.3109 F120.00
G01 X10.6463 Y10.3313 F120.00
G01 X10.6143 Y10.3550 F120.00
G01 X10.5849 Y10.3817 F120.00
G01 X10.5579 Y10.4115 F120.00
G01 X10.5401 Y10.4338 F120.00
G01 X10.5201 Y10.4565 F120.00
G01 X10.5051 Y10.4721 F120.00
G01 X10.4942 Y10.4826 F120.00
G01 X10.4717 Y10.5029 F120.00
G01 X10.4532 Y10.5180 F120.00
G01 X10.4412 Y10.5272 F120.00
G01 X10.4164 Y10.5447 F120.00
G01 X10.3982 Y10.5564 F120.00
G01 X10.3815 Y10.5663 F120.00
G01 X10.3509 Y10.5826 F120.00
G01 X10.3233 Y10.5953 F120.00
G01 X10.2952 Y10.6066 F120.00
G01 X10.2665 Y10.6164 F120.00
G01 X10.2520 Y10.6207 F120.00
G01 X10.2311 Y10.6262 F120.00
G01 X10.2015 Y10.6327 F120.00
G01 X10.1716 Y10.6376 F120.00
G01 X10.1415 Y10.6410 F120.00
G01 X10.1263 Y10.6421 F120.00
G01 X10.1025 Y10.6430 F120.00
G01 X4.0307 Y10.6431 F120.00
G01 X4.0112 Y10.6428 F120.00
G01 X3.9809 Y10.6410 F120.00
G01 X3.9659 Y10.6395 F120.00
G01 X3.9444 Y10.6367 F120.00
G01 X3.9103 Y10.6306 F120.00
G01 X3.8766 Y10.6224 F120.00
G01 X3.8476 Y10.6137 F120.00
G01 X3.8333 Y10.6088 F120.00
G01 X3.8131 Y10.6011 F120.00
G01 X3.7852 Y10.5891 F120.00
G01 X3.7638 Y10.5787 F120.00
G01 X3.7504 Y10.5716 F120.00
G01 X3.7242 Y10.5564 F120.00
G01 X3.7060 Y10.5447 F120.00
G01 X3.6935 Y10.5361 F120.00
G01 X3.6692 Y10.5180 F120.00
G01 X3.6426 Y10.4958 F120.00
G01 X3.6235 Y10.4781 F120.00
G01 X3.5994 Y10.4533 F120.00
G01 X3.5823 Y10.4338 F120.00
G01 X3.5645 Y10.4115 F120.00
G01 X3.5375 Y10.3817 F120.00
G01 X3.5081 Y10.3550 F120.00
G01 X3.4761 Y10.3313 F120.00
G01 X3.4421 Y10.3109 F120.00
G01 X3.4061 Y10.2939 F120.00
G01 X3.3687 Y10.2805 F120.00
G01 X3.3302 Y10.2709 F120.00
G01 X3.2909 Y10.2651 F120.00
G01 X3.2512 Y10.2631 F120.00
G01 X3.2115 Y10.2651 F120.00
G01 X3.1722 Y10.2709 F120.00
G01 X3.1337 Y10.2805 F120.00
G01 X3.0963 Y10.2939 F120.00
G01 X3.0603 Y10.3109 F120.00
G01 X3.0263 Y10.3313 F120.00
G01 X2.9943 Y10.3550 F120.00
G01 X2.9649 Y10.3817 F120.00
G01 X2.9382 Y10.4111 F120.00
G01 X2.9145 Y10.4431 F120.00
G01 X2.8941 Y10.4771 F120.00
G01 X2.8771 Y10.5131 F120.00
G01 X2.8637 Y10.5505 F120.00
G01 X2.8541 Y10.5890 F120.00
G01 X2.8483 Y10.6283 F120.00
G01 X2.8463 Y10.6680 F120.00
G01 X2.8483 Y10.7077 F120.00
G01 X2.8541 Y10.7470 F120.00
G01 X2.8637 Y10.7855 F120.00
G01 X2.8771 Y10.8229 F120.00
G01 X2.8941 Y10.8589 F120.00
G01 X2.9145 Y10.8929 F120.00
G01 X2.9382 Y10.9249 F120.00
G01 X2.9649 Y10.9543 F120.00
G01 X2.9943 Y10.9810 F120.00
G01 X3.0263 Y11.0047 F120.00
G01 X3.0603 Y11.0251 F120.00
G01 X3.0963 Y11.0421 F120.00
G01 X3.1337 Y11.0555 F120.00
G01 X3.1722 Y11.0651 F120.00
G01 X3.2115 Y11.0709 F120.00
G01 X3.2512 Y11.0729 F120.00
G01 X3.2909 Y11.0709 F120.00
G01 X3.3302 Y11.0651 F120.00
G01 X3.3687 Y11.0555 F120.00
G01 X3.4061 Y11.0421 F120.00
G01 X3.4421 Y11.0251 F120.00
G01 X3.4761 Y11.0047 F120.00
G01 X3.5081 Y10.9810 F120.00
G01 X3.5375 Y10.9543 F120.00
G01 X3.5645 Y10.9245 F120.00
G00 Z2.0000
G00 X4.1888 Y13.1959
G01 F60.00
G01 Z0.0000
G01 F120.00
G01 X4.1866 Y13.2350 F120.00
G01 X4.1650 Y14.9689 F120.00
G01 X4.1640 Y14.9880 F120.00
G01 X4.1625 Y15.0007 F120.00
G01 X4.1604 Y15.0133 F120.00
G01 X4.1561 Y15.0320 F120.00
G01 X4.1524 Y15.0442 F120.00
G01 X4.1480 Y15.0563 F120.00
G01 X4.1431 Y15.0680 F120.00
G01 X4.1346 Y15.0852 F120.00
G01 X4.1282 Y15.0963 F120.00
G01 X4.1213 Y15.1070 F120.00
G01 X4.1098 Y15.1224 F120.00
G01 X4.1016 Y15.1322 F120.00
G01 X4.0928 Y15.1415 F120.00
G01 X4.0836 Y15.1503 F120.00
G01 X4.0740 Y15.1587 F120.00
G01 X4.0516 Y15.1757 F120.00
G01 X3.9977 Y15.2245 F120.00
G01 X3.9489 Y15.2784 F120.00
G01 X3.9057 Y15.3367 F120.00
G01 X3.8683 Y15.3990 F120.00
G01 X3.8373 Y15.4647 F120.00
G01 X3.8128 Y15.5331 F120.00
G01 X3.7951 Y15.6036 F120.00
G01 X3.7845 Y15.6754 F120.00
G01 X3.7809 Y15.7480 F120.00
G01 X3.7845 Y15.8206 F120.00
G01 X3.7951 Y15.8924 F120.00
G01 X3.8128 Y15.9629 F120.00
G01 X3.8373 Y16.0313 F120.00
G01 X3.8683 Y16.0970 F120.00
G01 X3.9057 Y16.1593 F120.00
G01 X3.9489 Y16.2176 F120.00
G01 X3.9977 Y16.2715 F120.00
G01 X4.0516 Y16.3203 F120.00
G01 X4.1099 Y16.3635 F120.00
G01 X4.1722 Y16.4009 F120.00
G01 X4.2379 Y16.4319 F120.00
G01 X4.3063 Y16.4564 F120.00
G01 X4.3768 Y16.4741 F120.00
G01 X4.4486 Y16.4847 F120.00
G01 X4.5212 Y16.4883 F120.00
G01 X4.5938 Y16.4847 F120.00
G01 X4.6656 Y16.4741 F120.00
G01 X4.7361 Y16.4564 F120.00
G01 X4.8045 Y16.4319 F120.00
G01 X4.8702 Y16.4009 F120.00
G01 X4.9325 Y16.3635 F120.00
G01 X4.9908 Y16.3203 F120.00
G01 X5.0447 Y16.2715 F120.00
G01 X5.0935 Y16.2176 F120.00
G01 X5.1367 Y16.1593 F120.00
G01 X5.1741 Y16.0970 F120.00
G01 X5.2051 Y16.0313 F120.00
G01 X5.2296 Y15.9629 F120.00
G01 X5.2473 Y15.8924 F120.00
G01 X5.2579 Y15.8206 F120.00
G01 X5.2615 Y15.7480 F120.00
G01 X5.2579 Y15.6754 F120.00
G01 X5.2473 Y15.6036 F120.00
G01 X5.2296 Y15.5331 F120.00
G01 X5.2051 Y15.4647 F120.00
G01 X5.1741 Y15.3990 F120.00
G01 X5.1367 Y15.3367 F120.00
G01 X5.0935 Y15.2784 F120.00
G01 X5.0447 Y15.2245 F120.00
G01 X4.9908 Y15.1757 F120.00
G01 X4.9721 Y15.1610 F120.00
G01 X4.9590 Y15.1490 F120.00
G01 X4.9469 Y15.1361 F120.00
G01 X4.9393 Y15.1271 F120.00
G01 X4.9322 Y15.1177 F120.00
G01 X4.9223 Y15.1029 F120.00
G01 X4.9163 Y15.0927 F120.00
G01 X4.9083 Y15.0770 F120.00
G01 X4.9013 Y15.0606 F120.00
G01 X4.8956 Y15.0439 F120.00
G01 X4.8911 Y15.0268 F120.00
G01 X4.8877 Y15.0094 F120.00
G01 X4.8857 Y14.9918 F120.00
G01 X4.8850 Y14.9800 F120.00
G01 X4.8848 Y14.9682 F120.00
G01 X4.8989 Y13.8402 F120.00
G01 X4.8998 Y13.8219 F120.00
G01 X4.9012 Y13.8098 F120.00
G01 X4.9031 Y13.7978 F120.00
G01 X4.9071 Y13.7800 F120.00
G01 X4.9104 Y13.7683 F120.00
G01 X4.9144 Y13.7568 F120.00
G01 X4.9213 Y13.7399 F120.00
G01 X4.9266 Y13.7289 F120.00
G01 X4.9324 Y13.7183 F120.00
G01 X4.9388 Y13.7079 F120.00
G01 X4.9456 Y13.6978 F120.00
G01 X4.9568 Y13.6834 F120.00
G01 X4.9690 Y13.6698 F120.00
G01 X4.9821 Y13.6571 F120.00
G01 X4.9914 Y13.6492 F120.00
G01 X5.0010 Y13.6417 F120.00
G01 X5.0161 Y13.6315 F120.00
G01 X5.0266 Y13.6253 F120.00
G01 X5.0374 Y13.6196 F120.00
G01 X5.0540 Y13.6120 F120.00
G01 X5.0711 Y13.6057 F120.00
G01 X5.0828 Y13.6022 F120.00
G01 X5.0946 Y13.5993 F120.00
G01 X5.1125 Y13.5960 F120.00
G01 X5.1246 Y13.5945 F120.00
G01 X5.1368 Y13.5936 F120.00
G01 X5.1489 Y13.5933 F120.00
G01 X11.5313 Y13.5933 F120.00
G01 X11.5436 Y13.5936 F120.00
G01 X11.5558 Y13.5945 F120.00
G01 X11.5680 Y13.5960 F120.00
G01 X11.5801 Y13.5981 F120.00
G01 X11.5920 Y13.6008 F120.00
G01 X11.6039 Y13.6041 F120.00
G01 X11.6155 Y13.6079 F120.00
G01 X11.6270 Y13.6123 F120.00
G01 X11.6382 Y13.6173 F120.00
G01 X11.6545 Y13.6258 F120.00
G01 X11.6702 Y13.6354 F120.00
G01 X11.6851 Y13.6462 F120.00
G01 X11.6992 Y13.6581 F120.00
G01 X11.7124 Y13.6709 F120.00
G01 X11.7245 Y13.6847 F120.00
G01 X11.7321 Y13.6944 F120.00
G01 X11.7425 Y13.7096 F120.00
G01 X11.7518 Y13.7255 F120.00
G01 X11.7573 Y13.7364 F120.00
G01 X11.7645 Y13.7533 F120.00
G01 X11.7705 Y13.7707 F120.00
G01 X11.7752 Y13.7885 F120.00
G01 X11.7776 Y13.8006 F120.00
G01 X11.7801 Y13.8188 F120.00
G01 X11.7810 Y13.8310 F120.00
G01 X11.7813 Y13.8433 F120.00
G01 X11.7813 Y14.9685 F120.00
G01 X11.7810 Y14.9815 F120.00
G01 X11.7800 Y14.9944 F120.00
G01 X11.7783 Y15.0072 F120.00
G01 X11.7759 Y15.0200 F120.00
G01 X11.7712 Y15.0388 F120.00
G01 X11.7673 Y15.0511 F120.00
G01 X11.7601 Y15.0692 F120.00
G01 X11.7546 Y15.0809 F120.00
G01 X11.7485 Y15.0923 F120.00
G01 X11.7382 Y15.1088 F120.00
G01 X11.7267 Y15.1245 F120.00
G01 X11.7184 Y15.1344 F120.00
G01 X11.7095 Y15.1438 F120.00
G01 X11.7002 Y15.1528 F120.00
G01 X11.6904 Y15.1613 F120.00
G01 X11.6716 Y15.1757 F120.00
G01 X11.6177 Y15.2245 F120.00
G01 X11.5689 Y15.2784 F120.00
G01 X11.5257 Y15.3367 F120.00
G01 X11.4883 Y15.3990 F120.00
G01 X11.4573 Y15.4647 F120.00
G01 X11.4328 Y15.5331 F120.00
G01 X11.4151 Y15.6036 F120.00
G01 X11.4045 Y15.6754 F120.00
G01 X11.4009 Y15.7480 F120.00
G01 X11.4045 Y15.8206 F120.00
G01 X11.4151 Y15.8924 F120.00
G01 X11.4328 Y15.9629 F120.00
G01 X11.4573 Y16.0313 F120.00
G01 X11.4883 Y16.0970 F120.00
G01 X11.5257 Y16.1593 F120.00
G01 X11.5689 Y16.2176 F120.00
G01 X11.6177 Y16.2715 F120.00
G01 X11.6716 Y16.3203 F120.00
G01 X11.7299 Y16.3635 F120.00
G01 X11.7922 Y16.4009 F120.00
G01 X11.8579 Y16.4319 F120.00
G01 X11.9263 Y16.4564 F120.00
G01 X11.9968 Y16.4741 F120.00
G01 X12.0686 Y16.4847 F120.00
G01 X12.1412 Y16.4883 F120.00
G01 X12.2138 Y16.4847 F120.00
G01 X12.2856 Y16.4741 F120.00
G01 X12.3561 Y16.4564 F120.00
G01 X12.4245 Y16.4319 F120.00
G01 X12.4902 Y16.4009 F120.00
G01 X12.5525 Y16.3635 F120.00
G01 X12.6108 Y16.3203 F120.00
G01 X12.6647 Y16.2715 F120.00
G01 X12.7135 Y16.2176 F120.00
G01 X12.7567 Y16.1593 F120.00
G01 X12.7941 Y16.0970 F120.00
G01 X12.8251 Y16.0313 F120.00
G01 X12.8496 Y15.9629 F120.00
G01 X12.8673 Y15.8924 F120.00
G01 X12.8779 Y15.8206 F120.00
G01 X12.8815 Y15.7480 F120.00
G01 X12.8779 Y15.6754 F120.00
G01 X12.8673 Y15.6036 F120.00
G01 X12.8496 Y15.5331 F120.00
G01 X12.8251 Y15.4647 F120.00
G01 X12.7941 Y15.3990 F120.00
G01 X12.7567 Y15.3367 F120.00
G01 X12.7135 Y15.2784 F120.00
G01 X12.6647 Y15.2245 F120.00
G01 X12.6108 Y15.1757 F120.00
G01 X12.5930 Y15.1622 F120.00
G01 X12.5841 Y15.1546 F120.00
G01 X12.5756 Y15.1466 F120.00
G01 X12.5675 Y15.1382 F120.00
G01 X12.5598 Y15.1295 F120.00
G01 X12.5525 Y15.1204 F120.00
G01 X12.5457 Y15.1110 F120.00
G01 X12.5362 Y15.0963 F120.00
G01 X12.5278 Y15.0809 F120.00
G01 X12.5228 Y15.0704 F120.00
G01 X12.5162 Y15.0542 F120.00
G01 X12.5108 Y15.0376 F120.00
G01 X12.5079 Y15.0263 F120.00
G01 X12.5044 Y15.0091 F120.00
G01 X12.5028 Y14.9976 F120.00
G01 X12.5017 Y14.9860 F120.00
G01 X12.5011 Y14.9685 F120.00
G01 X12.5011 Y13.8433 F120.00
G01 X12.5018 Y13.8249 F120.00
G01 X12.5030 Y13.8127 F120.00
G01 X12.5059 Y13.7945 F120.00
G01 X12.5086 Y13.7826 F120.00
G01 X12.5137 Y13.7649 F120.00
G01 X12.5201 Y13.7476 F120.00
G01 X12.5251 Y13.7364 F120.00
G01 X12.5306 Y13.7255 F120.00
G01 X12.5367 Y13.7148 F120.00
G01 X12.5467 Y13.6994 F120.00
G01 X12.5540 Y13.6895 F120.00
G01 X12.5618 Y13.6800 F120.00
G01 X12.5743 Y13.6665 F120.00
G01 X12.5832 Y13.6581 F120.00
G01 X12.5973 Y13.6462 F120.00
G01 X12.6072 Y13.6389 F120.00
G01 X12.6174 Y13.6321 F120.00
G01 X12.6333 Y13.6228 F120.00
G01 X12.6498 Y13.6148 F120.00
G01 X12.6669 Y13.6079 F120.00
G01 X12.6844 Y13.6024 F120.00
G01 X12.7023 Y13.5981 F120.00
G01 X12.7205 Y13.5952 F120.00
G01 X12.7327 Y13.5940 F120.00
G01 X12.7511 Y13.5933 F120.00
G01 X16.5935 Y13.5933 F120.00
G01 X16.6117 Y13.5940 F120.00
G01 X16.6238 Y13.5952 F120.00
G01 X16.6359 Y13.5969 F120.00
G01 X16.6537 Y13.6007 F120.00
G01 X16.6713 Y13.6057 F120.00
G01 X16.6828 Y13.6098 F120.00
G01 X16.6940 Y13.6144 F120.00
G01 X16.7105 Y13.6224 F120.00
G01 X16.7263 Y13.6315 F120.00
G01 X16.7414 Y13.6417 F120.00
G01 X16.7510 Y13.6492 F120.00
G01 X16.7603 Y13.6571 F120.00
G01 X16.7734 Y13.6698 F120.00
G01 X16.7817 Y13.6787 F120.00
G01 X16.7894 Y13.6881 F120.00
G01 X16.8002 Y13.7028 F120.00
G01 X16.8100 Y13.7183 F120.00
G01 X16.8185 Y13.7344 F120.00
G01 X16.8259 Y13.7511 F120.00
G01 X16.8320 Y13.7683 F120.00
G01 X16.8368 Y13.7859 F120.00
G01 X16.8403 Y13.8038 F120.00
G01 X16.8426 Y13.8219 F120.00
G01 X16.8435 Y13.8402 F120.00
G01 X16.8576 Y14.9741 F120.00
G01 X16.8567 Y14.9918 F120.00
G01 X16.8547 Y15.0094 F120.00
G01 X16.8513 Y15.0268 F120.00
G01 X16.8468 Y15.0439 F120.00
G01 X16.8431 Y15.0551 F120.00
G01 X16.8389 Y15.0661 F120.00
G01 X16.8316 Y15.0823 F120.00
G01 X16.8232 Y15.0979 F120.00
G01 X16.8136 Y15.1128 F120.00
G01 X16.8067 Y15.1224 F120.00
G01 X16.7994 Y15.1316 F120.00
G01 X16.7916 Y15.1405 F120.00
G01 X16.7834 Y15.1490 F120.00
G01 X16.7703 Y15.1610 F120.00
G01 X16.7516 Y15.1757 F120.00
G01 X16.6977 Y15.2245 F120.00
G01 X16.6489 Y15.2784 F120.00
G01 X16.6057 Y15.3367 F120.00
G01 X16.5683 Y15.3990 F120.00
G01 X16.5373 Y15.4647 F120.00
G01 X16.5128 Y15.5331 F120.00
G01 X16.4951 Y15.6036 F120.00
G01 X16.4845 Y15.6754 F120.00
G01 X16.4809 Y15.7480 F120.00
G01 X16.4845 Y15.8206 F120.00
G01 X16.4951 Y15.8924 F120.00
G01 X16.5128 Y15.9629 F120.00
G01 X16.5373 Y16.0313 F120.00
G01 X16.5683 Y16.0970 F120.00
G01 X16.6057 Y16.1593 F120.00
G01 X16.6489 Y16.2176 F120.00
G01 X16.6977 Y16.2715 F120.00
G01 X16.7516 Y16.3203 F120.00
G01 X16.8099 Y16.3635 F120.00
G01 X16.8722 Y16.4009 F120.00
G01 X16.9379 Y16.4319 F120.00
G01 X17.0063 Y16.4564 F120.00
G01 X17.0768 Y16.4741 F120.00
G01 X17.1486 Y16.4847 F120.00
G01 X17.2212 Y16.4883 F120.00
G01 X17.2938 Y16.4847 F120.00
G01 X17.3656 Y16.4741 F120.00
G01 X17.4361 Y16.4564 F120.00
G01 X17.5045 Y16.4319 F120.00
G01 X17.5702 Y16.4009 F120.00
G01 X17.6325 Y16.3635 F120.00
G01 X17.6908 Y16.3203 F120.00
G01 X17.7447 Y16.2715 F120.00
G01 X17.7935 Y16.2176 F120.00
G01 X17.8367 Y16.1593 F120.00
G01 X17.8741 Y16.0970 F120.00
G01 X17.9051 Y16.0313 F120.00
G01 X17.9296 Y15.9629 F120.00
G01 X17.9473 Y15.8924 F120.00
G01 X17.9579 Y15.8206 F120.00
G01 X17.9615 Y15.7480 F120.00
G01 X17.9579 Y15.6754 F120.00
G01 X17.9473 Y15.6036 F120.00
G01 X17.9296 Y15.5331 F120.00
G01 X17.9051 Y15.4647 F120.00
G01 X17.8741 Y15.3990 F120.00
G01 X17.8367 Y15.3367 F120.00
G01 X17.7935 Y15.2784 F120.00
G01 X17.7447 Y15.2245 F120.00
G01 X17.6908 Y15.1757 F120.00
G01 X17.6734 Y15.1627 F120.00
G01 X17.6588 Y15.1503 F120.00
G01 X17.6496 Y15.1415 F120.00
G01 X17.6408 Y15.1322 F120.00
G01 X17.6286 Y15.1174 F120.00
G01 X17.6211 Y15.1070 F120.00
G01 X17.6109 Y15.0908 F120.00
G01 X17.6048 Y15.0796 F120.00
G01 X17.5993 Y15.0680 F120.00
G01 X17.5921 Y15.0503 F120.00
G01 X17.5881 Y15.0381 F120.00
G01 X17.5833 Y15.0196 F120.00
G01 X17.5808 Y15.0070 F120.00
G01 X17.5784 Y14.9880 F120.00
G01 X17.5774 Y14.9689 F120.00
G01 X17.5558 Y13.2350 F120.00
G01 X17.5536 Y13.1959 F120.00
G01 X17.5482 Y13.1610 F120.00
G01 X17.5394 Y13.1268 F120.00
G01 X17.5273 Y13.0937 F120.00
G01 X17.5120 Y13.0619 F120.00
G01 X17.4936 Y13.0317 F120.00
G01 X17.4724 Y13.0035 F120.00
G01 X17.4486 Y12.9775 F120.00
G01 X17.4223 Y12.9539 F120.00
G01 X17.3938 Y12.9331 F120.00
G01 X17.3634 Y12.9151 F120.00
G01 X17.3314 Y12.9002 F120.00
G01 X17.2981 Y12.8885 F120.00
G01 X17.2638 Y12.8802 F120.00
G01 X17.2288 Y12.8752 F120.00
G01 X17.1897 Y12.8735 F120.00
G01 X4.5527 Y12.8735 F120.00
G01 X4.5136 Y12.8752 F120.00
G01 X4.4786 Y12.8802 F120.00
G01 X4.4443 Y12.8885 F120.00
G01 X4.4110 Y12.9002 F120.00
G01 X4.3790 Y12.9151 F120.00
G01 X4.3486 Y12.9331 F120.00
G01 X4.3201 Y12.9539 F120.00
G01 X4.2938 Y12.9775 F120.00
G01 X4.2700 Y13.0035 F120.00
G01 X4.2488 Y13.0317 F120.00
G01 X4.2304 Y13.0619 F120.00
G01 X4.2151 Y13.0937 F120.00
G01 X4.2030 Y13.1268 F120.00
G01 X4.1942 Y13.1610 F120.00
G01 X4.1888 Y13.1959 F120.00
G01 X4.2644 Y15.4350 F120.00
G01 X4.2349 Y15.4617 F120.00
G01 X4.2082 Y15.4911 F120.00
G01 X4.1845 Y15.5231 F120.00
G01 X4.1641 Y15.5571 F120.00
G01 X4.1471 Y15.5931 F120.00
G01 X4.1337 Y15.6305 F120.00
G01 X4.1241 Y15.6690 F120.00
G01 X4.1183 Y15.7083 F120.00
G01 X4.1163 Y15.7480 F120.00
G01 X4.1183 Y15.7877 F120.00
G01 X4.1241 Y15.8270 F120.00
G01 X4.1337 Y15.8655 F120.00
G01 X4.1471 Y15.9029 F120.00
G01 X4.1641 Y15.9389 F120.00
G01 X4.1845 Y15.9729 F120.00
G01 X4.2082 Y16.0049 F120.00
G01 X4.2349 Y16.0343 F120.00
G01 X4.2643 Y16.0610 F120.00
G01 X4.2963 Y16.0847 F120.00
G01 X4.3303 Y16.1051 F120.00
G01 X4.3663 Y16.1221 F120.00
G01 X4.4037 Y16.1355 F120.00
G01 X4.4422 Y16.1451 F120.00
G01 X4.4815 Y16.1509 F120.00
G01 X4.5212 Y16.1529 F120.00
G01 X4.5609 Y16.1509 F120.00
G01 X4.6002 Y16.1451 F120.00
G01 X4.6387 Y16.1355 F120.00
G01 X4.6761 Y16.1221 F120.00
G01 X4.7121 Y16.1051 F120.00
G01 X4.7461 Y16.0847 F120.00
G01 X4.7781 Y16.0610 F120.00
G01 X4.8075 Y16.0343 F120.00
G01 X4.8342 Y16.0049 F120.00
G01 X4.8579 Y15.9729 F120.00
G01 X4.8783 Y15.9389 F120.00
G01 X4.8953 Y15.9029 F120.00
G01 X4.9087 Y15.8655 F120.00
G01 X4.9183 Y15.8270 F120.00
G01 X4.9241 Y15.7877 F120.00
G01 X4.9261 Y15.7480 F120.00
G01 X4.9241 Y15.7083 F120.00
G01 X4.9183 Y15.6690 F120.00
G01 X4.9087 Y15.6305 F120.00
G01 X4.8953 Y15.5931 F120.00
G01 X4.8783 Y15.5571 F120.00
G01 X4.8579 Y15.5231 F120.00
G01 X4.8342 Y15.4911 F120.00
G01 X4.8075 Y15.4617 F120.00
G01 X4.7770 Y15.4341 F120.00
G01 X4.7570 Y15.4179 F120.00
G01 X4.7406 Y15.4035 F120.00
G01 X4.7263 Y15.3900 F120.00
G01 X4.7070 Y15.3702 F120.00
G01 X4.6924 Y15.3540 F120.00
G01 X4.6748 Y15.3327 F120.00
G01 X4.6583 Y15.3106 F120.00
G01 X4.6428 Y15.2877 F120.00
G01 X4.6284 Y15.2641 F120.00
G01 X4.6124 Y15.2346 F120.00
G01 X4.6006 Y15.2096 F120.00
G01 X4.5951 Y15.1969 F120.00
G01 X4.5871 Y15.1767 F120.00
G01 X4.5780 Y15.1506 F120.00
G01 X4.5686 Y15.1184 F120.00
G01 X4.5623 Y15.0915 F120.00
G01 X4.5573 Y15.0643 F120.00
G01 X4.5542 Y15.0428 F120.00
G01 X4.5515 Y15.0153 F120.00
G01 X4.5503 Y14.9956 F120.00
G01 X4.5498 Y14.9679 F120.00
G01 X4.5640 Y13.8360 F120.00
G01 X4.5648 Y13.8116 F120.00
G01 X4.5664 Y13.7893 F120.00
G01 X4.5698 Y13.7610 F120.00
G01 X4.5745 Y13.7329 F120.00
G01 X4.5786 Y13.7130 F120.00
G01 X4.5840 Y13.6912 F120.00
G01 X4.5921 Y13.6639 F120.00
G01 X4.5987 Y13.6447 F120.00
G01 X4.6067 Y13.6238 F120.00
G01 X4.6146 Y13.6051 F120.00
G01 X4.6242 Y13.5848 F120.00
G01 X4.6374 Y13.5595 F120.00
G01 X4.6475 Y13.5419 F120.00
G01 X4.6628 Y13.5179 F120.00
G01 X4.6756 Y13.4995 F120.00
G01 X4.6929 Y13.4769 F120.00
G01 X4.7059 Y13.4613 F120.00
G01 X4.7209 Y13.4446 F120.00
G01 X4.7408 Y13.4242 F120.00
G01 X4.7556 Y13.4103 F120.00
G01 X4.7725 Y13.3956 F120.00
G01 X4.7947 Y13.3778 F120.00
G01 X4.8111 Y13.3657 F120.00
G01 X4.8347 Y13.3498 F120.00
G01 X4.8539 Y13.3382 F120.00
G01 X4.8788 Y13.3244 F120.00
G01 X4.8970 Y13.3153 F120.00
G01 X4.9230 Y13.3037 F120.00
G01 X4.9438 Y13.2955 F120.00
G01 X4.9707 Y13.2861 F120.00
G01 X4.9902 Y13.2803 F120.00
G01 X5.0119 Y13.2746 F120.00
G01 X5.0317 Y13.2702 F120.00
G01 X5.0597 Y13.2652 F120.00
G01 X5.0880 Y13.2615 F120.00
G01 X5.1164 Y13.2592 F120.00
G01 X5.1489 Y13.2583 F120.00
G01 X11.5313 Y13.2583 F120.00
G01 X11.5559 Y13.2588 F120.00
G01 X11.5845 Y13.2607 F120.00
G01 X11.6131 Y13.2641 F120.00
G01 X11.6414 Y13.2688 F120.00
G01 X11.6694 Y13.2749 F120.00
G01 X11.6972 Y13.2823 F120.00
G01 X11.7245 Y13.2911 F120.00
G01 X11.7514 Y13.3013 F120.00
G01 X11.7721 Y13.3102 F120.00
G01 X11.7851 Y13.3162 F120.00
G01 X11.7980 Y13.3226 F120.00
G01 X11.8161 Y13.3323 F120.00
G01 X11.8408 Y13.3469 F120.00
G01 X11.8597 Y13.3592 F120.00
G01 X11.8715 Y13.3674 F120.00
G01 X11.8880 Y13.3796 F120.00
G01 X11.8992 Y13.3885 F120.00
G01 X11.9165 Y13.4030 F120.00
G01 X11.9272 Y13.4126 F120.00
G01 X11.9376 Y13.4225 F120.00
G01 X11.9521 Y13.4370 F120.00
G01 X11.9620 Y13.4474 F120.00
G01 X11.9769 Y13.4643 F120.00
G01 X11.9899 Y13.4802 F120.00
G01 X11.9987 Y13.4915 F120.00
G01 X12.0072 Y13.5031 F120.00
G01 X12.0200 Y13.5217 F120.00
G01 X12.0277 Y13.5338 F120.00
G01 X12.0382 Y13.5514 F120.00
G01 X12.0491 Y13.5712 F120.00
G01 X12.0557 Y13.5840 F120.00
G01 X12.0644 Y13.6025 F120.00
G01 X12.0702 Y13.6156 F120.00
G01 X12.0786 Y13.6366 F120.00
G01 X12.0835 Y13.6501 F120.00
G01 X12.0880 Y13.6637 F120.00
G01 X12.0940 Y13.6833 F120.00
G01 X12.0977 Y13.6972 F120.00
G01 X12.1030 Y13.7191 F120.00
G01 X12.1084 Y13.7473 F120.00
G01 X12.1124 Y13.7758 F120.00
G01 X12.1150 Y13.8044 F120.00
G01 X12.1158 Y13.8187 F120.00
G01 X12.1163 Y13.8392 F120.00
G01 X12.1163 Y14.9685 F120.00
G01 X12.1153 Y15.0031 F120.00
G01 X12.1136 Y15.0247 F120.00
G01 X12.1119 Y15.0398 F120.00
G01 X12.1085 Y15.0634 F120.00
G01 X12.1059 Y15.0783 F120.00
G01 X12.1029 Y15.0931 F120.00
G01 X12.0979 Y15.1142 F120.00
G01 X12.0883 Y15.1475 F120.00
G01 X12.0820 Y15.1659 F120.00
G01 X12.0743 Y15.1861 F120.00
G01 X12.0668 Y15.2041 F120.00
G01 X12.0586 Y15.2218 F120.00
G01 X12.0489 Y15.2412 F120.00
G01 X12.0416 Y15.2545 F120.00
G01 X12.0261 Y15.2805 F120.00
G01 X12.0068 Y15.3093 F120.00
G01 X11.9858 Y15.3368 F120.00
G01 X11.9661 Y15.3599 F120.00
G01 X11.9453 Y15.3819 F120.00
G01 X11.9265 Y15.3998 F120.00
G01 X11.9070 Y15.4169 F120.00
G01 X11.8847 Y15.4347 F120.00
G01 X11.8549 Y15.4617 F120.00
G01 X11.8282 Y15.4911 F120.00
G01 X11.8045 Y15.5231 F120.00
G01 X11.7841 Y15.5571 F120.00
G01 X11.7671 Y15.5931 F120.00
G01 X11.7537 Y15.6305 F120.00
G01 X11.7441 Y15.6690 F120.00
G01 X11.7383 Y15.7083 F120.00
G01 X11.7363 Y15.7480 F120.00
G01 X11.7383 Y15.7877 F120.00
G01 X11.7441 Y15.8270 F120.00
G01 X11.7537 Y15.8655 F120.00
G01 X11.7671 Y15.9029 F120.00
G01 X11.7841 Y15.9389 F120.00
G01 X11.8045 Y15.9729 F120.00
G01 X11.8282 Y16.0049 F120.00
G01 X11.8549 Y16.0343 F120.00
G01 X11.8843 Y16.0610 F120.00
G01 X11.9163 Y16.0847 F120.00
G01 X11.9503 Y16.1051 F120.00
G01 X11.9863 Y16.1221 F120.00
G01 X12.0237 Y16.1355 F120.00
G01 X12.0622 Y16.1451 F120.00
G01 X12.1015 Y16.1509 F120.00
G01 X12.1412 Y16.1529 F120.00
G01 X12.1809 Y16.1509 F120.00
G01 X12.2202 Y16.1451 F120.00
G01 X12.2587 Y16.1355 F120.00
G01 X12.2961 Y16.1221 F120.00
G01 X12.3321 Y16.1051 F120.00
G01 X12.3661 Y16.0847 F120.00
G01 X12.3981 Y16.0610 F120.00
G01 X12.4275 Y16.0343 F120.00
G01 X12.4542 Y16.0049 F120.00
G01 X12.4779 Y15.9729 F120.00
G01 X12.4983 Y15.9389 F120.00
G01 X12.5153 Y15.9029 F120.00
G01 X12.5287 Y15.8655 F120.00
G01 X12.5383 Y15.8270 F120.00
G01 X12.5441 Y15.7877 F120.00
G01 X12.5461 Y15.7480 F120.00
G01 X12.5441 Y15.7083 F120.00
G01 X12.5383 Y15.6690 F120.00
G01 X12.5287 Y15.6305 F120.00
G01 X12.5153 Y15.5931 F120.00
G01 X12.4983 Y15.5571 F120.00
G01 X12.4779 Y15.5231 F120.00
G01 X12.4542 Y15.4911 F120.00
G01 X12.4275 Y15.4617 F120.00
G01 X12.3977 Y15.4347 F120.00
G01 X12.3781 Y15.4192 F120.00
G01 X12.3575 Y15.4013 F120.00
G01 X12.3377 Y15.3825 F120.00
G01 X12.3189 Y15.3627 F120.00
G01 X12.3010 Y15.3422 F120.00
G01 X12.2806 Y15.3161 F120.00
G01 X12.2649 Y15.2938 F120.00
G01 X12.2533 Y15.2757 F120.00
G01 X12.2463 Y15.2641 F120.00
G01 X12.2303 Y15.2350 F120.00
G01 X12.2209 Y15.2157 F120.00
G01 X12.2153 Y15.2033 F120.00
G01 X12.2078 Y15.1854 F120.00
G01 X12.2002 Y15.1653 F120.00
G01 X12.1900 Y15.1338 F120.00
G01 X12.1843 Y15.1131 F120.00
G01 X12.1811 Y15.0999 F120.00
G01 X12.1745 Y15.0674 F120.00
G01 X12.1724 Y15.0540 F120.00
G01 X12.1696 Y15.0327 F120.00
G01 X12.1678 Y15.0133 F120.00
G01 X12.1666 Y14.9919 F120.00
G01 X12.1661 Y14.9685 F120.00
G01 X12.1661 Y13.8433 F120.00
G01 X12.1666 Y13.8187 F120.00
G01 X12.1680 Y13.7962 F120.00
G01 X12.1710 Y13.7676 F120.00
G01 X12.1740 Y13.7473 F120.00
G01 X12.1794 Y13.7191 F120.00
G01 X12.1862 Y13.6912 F120.00
G01 X12.1925 Y13.6696 F120.00
G01 X12.1969 Y13.6559 F120.00
G01 X12.2068 Y13.6289 F120.00
G01 X12.2180 Y13.6025 F120.00
G01 X12.2304 Y13.5766 F120.00
G01 X12.2442 Y13.5514 F120.00
G01 X12.2547 Y13.5338 F120.00
G01 X12.2624 Y13.5217 F120.00
G01 X12.2788 Y13.4981 F120.00
G01 X12.2963 Y13.4754 F120.00
G01 X12.3149 Y13.4535 F120.00
G01 X12.3246 Y13.4429 F120.00
G01 X12.3404 Y13.4268 F120.00
G01 X12.3613 Y13.4071 F120.00
G01 X12.3721 Y13.3977 F120.00
G01 X12.3880 Y13.3847 F120.00
G01 X12.4109 Y13.3674 F120.00
G01 X12.4347 Y13.3513 F120.00
G01 X12.4468 Y13.3437 F120.00
G01 X12.4663 Y13.3323 F120.00
G01 X12.4844 Y13.3226 F120.00
G01 X12.5047 Y13.3127 F120.00
G01 X12.5234 Y13.3044 F120.00
G01 X12.5444 Y13.2960 F120.00
G01 X12.5637 Y13.2891 F120.00
G01 X12.5852 Y13.2823 F120.00
G01 X12.5990 Y13.2784 F120.00
G01 X12.6189 Y13.2734 F120.00
G01 X12.6410 Y13.2688 F120.00
G01 X12.6612 Y13.2653 F120.00
G01 X12.6836 Y13.2622 F120.00
G01 X12.7040 Y13.2602 F120.00
G01 X12.7183 Y13.2592 F120.00
G01 X12.7409 Y13.2584 F120.00
G01 X16.5935 Y13.2583 F120.00
G01 X16.6118 Y13.2586 F120.00
G01 X16.6321 Y13.2596 F120.00
G01 X16.6605 Y13.2622 F120.00
G01 X16.6827 Y13.2652 F120.00
G01 X16.7107 Y13.2702 F120.00
G01 X16.7305 Y13.2746 F120.00
G01 X16.7522 Y13.2803 F120.00
G01 X16.7794 Y13.2887 F120.00
G01 X16.7986 Y13.2955 F120.00
G01 X16.8194 Y13.3037 F120.00
G01 X16.8380 Y13.3119 F120.00
G01 X16.8636 Y13.3244 F120.00
G01 X16.8833 Y13.3351 F120.00
G01 X16.9077 Y13.3498 F120.00
G01 X16.9246 Y13.3611 F120.00
G01 X16.9428 Y13.3741 F120.00
G01 X16.9653 Y13.3917 F120.00
G01 X16.9807 Y13.4048 F120.00
G01 X16.9972 Y13.4200 F120.00
G01 X17.0174 Y13.4402 F120.00
G01 X17.0311 Y13.4551 F120.00
G01 X17.0457 Y13.4722 F120.00
G01 X17.0583 Y13.4881 F120.00
G01 X17.0750 Y13.5111 F120.00
G01 X17.0874 Y13.5298 F120.00
G01 X17.0980 Y13.5472 F120.00
G01 X17.1118 Y13.5721 F120.00
G01 X17.1218 Y13.5921 F120.00
G01 X17.1334 Y13.6181 F120.00
G01 X17.1409 Y13.6370 F120.00
G01 X17.1484 Y13.6581 F120.00
G01 X17.1567 Y13.6854 F120.00
G01 X17.1619 Y13.7050 F120.00
G01 X17.1668 Y13.7269 F120.00
G01 X17.1694 Y13.7409 F120.00
G01 X17.1737 Y13.7691 F120.00
G01 X17.1771 Y13.8035 F120.00
G01 X17.1784 Y13.8360 F120.00
G01 X17.1926 Y14.9679 F120.00
G01 X17.1921 Y14.9956 F120.00
G01 X17.1909 Y15.0153 F120.00
G01 X17.1889 Y15.0369 F120.00
G01 X17.1851 Y15.0643 F120.00
G01 X17.1801 Y15.0915 F120.00
G01 X17.1723 Y15.1241 F120.00
G01 X17.1644 Y15.1506 F120.00
G01 X17.1600 Y15.1637 F120.00
G01 X17.1525 Y15.1841 F120.00
G01 X17.1418 Y15.2096 F120.00
G01 X17.1273 Y15.2398 F120.00
G01 X17.1140 Y15.2641 F120.00
G01 X17.0996 Y15.2877 F120.00
G01 X17.0841 Y15.3106 F120.00
G01 X17.0676 Y15.3327 F120.00
G01 X17.0538 Y15.3495 F120.00
G01 X17.0354 Y15.3702 F120.00
G01 X17.0218 Y15.3844 F120.00
G01 X17.0018 Y15.4035 F120.00
G01 X16.9854 Y15.4179 F120.00
G01 X16.9654 Y15.4341 F120.00
G01 X16.9349 Y15.4617 F120.00
G01 X16.9082 Y15.4911 F120.00
G01 X16.8845 Y15.5231 F120.00
G01 X16.8641 Y15.5571 F120.00
G01 X16.8471 Y15.5931 F120.00
G01 X16.8337 Y15.6305 F120.00
G01 X16.8241 Y15.6690 F120.00
G01 X16.8183 Y15.7083 F120.00
G01 X16.8163 Y15.7480 F120.00
G01 X16.8183 Y15.7877 F120.00
G01 X16.8241 Y15.8270 F120.00
G01 X16.8337 Y15.8655 F120.00
G01 X16.8471 Y15.9029 F120.00
G01 X16.8641 Y15.9389 F120.00
G01 X16.8845 Y15.9729 F120.00
G01 X16.9082 Y16.0049 F120.00
G01 X16.9349 Y16.0343 F120.00
G01 X16.9643 Y16.0610 F120.00
G01 X16.9963 Y16.0847 F120.00
G01 X17.0303 Y16.1051 F120.00
G01 X17.0663 Y16.1221 F120.00
G01 X17.1037 Y16.1355 F120.00
G01 X17.1422 Y16.1451 F120.00
G01 X17.1815 Y16.1509 F120.00
G01 X17.2212 Y16.1529 F120.00
G01 X17.2609 Y16.1509 F120.00
G01 X17.3002 Y16.1451 F120.00
G01 X17.3387 Y16.1355 F120.00
G01 X17.3761 Y16.1221 F120.00
G01 X17.4121 Y16.1051 F120.00
G01 X17.4461 Y16.0847 F120.00
G01 X17.4781 Y16.0610 F120.00
G01 X17.5075 Y16.0343 F120.00
G01 X17.5342 Y16.0049 F120.00
G01 X17.5579 Y15.9729 F120.00
G01 X17.5783 Y15.9389 F120.00
G01 X17.5953 Y15.9029 F120.00
G01 X17.6087 Y15.8655 F120.00
G01 X17.6183 Y15.8270 F120.00
G01 X17.6241 Y15.7877 F120.00
G01 X17.6261 Y15.7480 F120.00
G01 X17.6241 Y15.7083 F120.00
G01 X17.6183 Y15.6690 F120.00
G01 X17.6087 Y15.6305 F120.00
G01 X17.5953 Y15.5931 F120.00
G01 X17.5783 Y15.5571 F120.00
G01 X17.5579 Y15.5231 F120.00
G01 X17.5342 Y15.4911 F120.00
G01 X17.5075 Y15.4617 F120.00
G01 X17.4780 Y15.4350 F120.00
G01 X17.4587 Y15.4199 F120.00
G01 X17.4407 Y15.4047 F120.00
G01 X17.4250 Y15.3904 F120.00
G01 X17.4082 Y15.3738 F120.00
G01 X17.3908 Y15.3551 F120.00
G01 X17.3741 Y15.3356 F120.00
G01 X17.3558 Y15.3120 F120.00
G01 X17.3423 Y15.2927 F120.00
G01 X17.3262 Y15.2675 F120.00
G01 X17.3115 Y15.2415 F120.00
G01 X17.2981 Y15.2148 F120.00
G01 X17.2919 Y15.2012 F120.00
G01 X17.2836 Y15.1815 F120.00
G01 X17.2733 Y15.1534 F120.00
G01 X17.2645 Y15.1249 F120.00
G01 X17.2571 Y15.0959 F120.00
G01 X17.2512 Y15.0666 F120.00
G01 X17.2476 Y15.0433 F120.00
G01 X17.2451 Y15.0221 F120.00
G01 X17.2433 Y14.9987 F120.00
G01 X17.2425 Y14.9731 F120.00
G01 X17.2209 Y13.2474 F120.00
G01 X17.2199 Y13.2309 F120.00
G01 X17.2189 Y13.2262 F120.00
G01 X17.2171 Y13.2219 F120.00
G01 X17.2128 Y13.2162 F120.00
G01 X17.2091 Y13.2132 F120.00
G01 X17.2027 Y13.2102 F120.00
G01 X17.1980 Y13.2093 F120.00
G01 X17.1814 Y13.2085 F120.00
G01 X4.5610 Y13.2085 F120.00
G01 X4.5420 Y13.2096 F120.00
G01 X4.5353 Y13.2120 F120.00
G01 X4.5314 Y13.2146 F120.00
G01 X4.5280 Y13.2179 F120.00
G01 X4.5253 Y13.2219 F120.00
G01 X4.5235 Y13.2262 F120.00
G01 X4.5225 Y13.2309 F120.00
G01 X4.5215 Y13.2474 F120.00
G01 X4.4999 Y14.9731 F120.00
G01 X4.4985 Y15.0072 F120.00
G01 X4.4956 Y15.0370 F120.00
G01 X4.4912 Y15.0666 F120.00
G01 X4.4863 Y15.0917 F120.00
G01 X4.4802 Y15.1166 F120.00
G01 X4.4704 Y15.1494 F120.00
G01 X4.4619 Y15.1735 F120.00
G01 X4.4488 Y15.2051 F120.00
G01 X4.4378 Y15.2282 F120.00
G01 X4.4216 Y15.2583 F120.00
G01 X4.4083 Y15.2802 F120.00
G01 X4.3891 Y15.3085 F120.00
G01 X4.3736 Y15.3289 F120.00
G01 X4.3516 Y15.3551 F120.00
G01 X4.3342 Y15.3738 F120.00
G01 X4.3096 Y15.3976 F120.00
G01 X4.2903 Y15.4145 F120.00
G01 X4.2644 Y15.4350 F120.00
G01 X4.4789 Y15.6927 F120.00
G01 X4.4721 Y15.6989 F120.00
G01 X4.4675 Y15.7039 F120.00
G01 X4.4634 Y15.7094 F120.00
G01 X4.4599 Y15.7152 F120.00
G01 X4.4570 Y15.7214 F120.00
G01 X4.4547 Y15.7278 F120.00
G01 X4.4530 Y15.7344 F120.00
G01 X4.4520 Y15.7412 F120.00
G01 X4.4517 Y15.7480 F120.00
G01 X4.4520 Y15.7548 F120.00
G01 X4.4530 Y15.7616 F120.00
G01 X4.4547 Y15.7682 F120.00
G01 X4.4570 Y15.7746 F120.00
G01 X4.4599 Y15.7808 F120.00
G01 X4.4634 Y15.7866 F120.00
G01 X4.4675 Y15.7921 F120.00
G01 X4.4721 Y15.7971 F120.00
G01 X4.4771 Y15.8017 F120.00
G01 X4.4826 Y15.8058 F120.00
G01 X4.4884 Y15.8093 F120.00
G01 X4.4946 Y15.8122 F120.00
G01 X4.5010 Y15.8145 F120.00
G01 X4.5076 Y15.8162 F120.00
G01 X4.5144 Y15.8172 F120.00
G01 X4.5212 Y15.8175 F120.00
G01 X4.5280 Y15.8172 F120.00
G01 X4.5348 Y15.8162 F120.00
G01 X4.5414 Y15.8145 F120.00
G01 X4.5478 Y15.8122 F120.00
G01 X4.5540 Y15.8093 F120.00
G01 X4.5598 Y15.8058 F120.00
G01 X4.5653 Y15.8017 F120.00
G01 X4.5703 Y15.7971 F120.00
G01 X4.5749 Y15.7921 F120.00
G01 X4.5790 Y15.7866 F120.00
G01 X4.5825 Y15.7808 F120.00
G01 X4.5854 Y15.7746 F120.00
G01 X4.5877 Y15.7682 F120.00
G01 X4.5894 Y15.7616 F120.00
G01 X4.5904 Y15.7548 F120.00
G01 X4.5907 Y15.7480 F120.00
G01 X4.5904 Y15.7412 F120.00
G01 X4.5894 Y15.7344 F120.00
G01 X4.5877 Y15.7278 F120.00
G01 X4.5854 Y15.7214 F120.00
G01 X4.5825 Y15.7152 F120.00
G01 X4.5790 Y15.7094 F120.00
G01 X4.5749 Y15.7039 F120.00
G01 X4.5703 Y15.6989 F120.00
G01 X4.5607 Y15.6901 F120.00
G01 X4.5419 Y15.6747 F120.00
G01 X4.5218 Y15.6573 F120.00
G01 X4.5034 Y15.6730 F120.00
G01 X4.4789 Y15.6927 F120.00
G00 Z2.0000
G00 X1.9401 Y15.8044
G01 F60.00
G01 Z0.0000
G01 F120.00
G01 X1.9602 Y15.8207 F120.00
G01 X1.9812 Y15.8387 F120.00
G01 X2.0022 Y15.8207 F120.00
G01 X2.0223 Y15.8044 F120.00
G01 X2.0303 Y15.7971 F120.00
G01 X2.0349 Y15.7921 F120.00
G01 X2.0390 Y15.7866 F120.00
G01 X2.0425 Y15.7808 F120.00
G01 X2.0454 Y15.7746 F120.00
G01 X2.0477 Y15.7682 F120.00
G01 X2.0494 Y15.7616 F120.00
G01 X2.0504 Y15.7548 F120.00
G01 X2.0507 Y15.7480 F120.00
G01 X2.0504 Y15.7412 F120.00
G01 X2.0494 Y15.7344 F120.00
G01 X2.0477 Y15.7278 F120.00
G01 X2.0454 Y15.7214 F120.00
G01 X2.0425 Y15.7152 F120.00
G01 X2.0390 Y15.7094 F120.00
G01 X2.0349 Y15.7039 F120.00
G01 X2.0303 Y15.6989 F120.00
G01 X2.0253 Y15.6943 F120.00
G01 X2.0198 Y15.6902 F120.00
G01 X2.0140 Y15.6867 F120.00
G01 X2.0078 Y15.6838 F120.00
G01 X2.0014 Y15.6815 F120.00
G01 X1.9948 Y15.6798 F120.00
G01 X1.9880 Y15.6788 F120.00
G01 X1.9812 Y15.6785 F120.00
G01 X1.9744 Y15.6788 F120.00
G01 X1.9676 Y15.6798 F120.00
G01 X1.9610 Y15.6815 F120.00
G01 X1.9546 Y15.6838 F120.00
G01 X1.9484 Y15.6867 F120.00
G01 X1.9426 Y15.6902 F120.00
G01 X1.9371 Y15.6943 F120.00
G01 X1.9321 Y15.6989 F120.00
G01 X1.9275 Y15.7039 F120.00
G01 X1.9234 Y15.7094 F120.00
G01 X1.9199 Y15.7152 F120.00
G01 X1.9170 Y15.7214 F120.00
G01 X1.9147 Y15.7278 F120.00
G01 X1.9130 Y15.7344 F120.00
G01 X1.9120 Y15.7412 F120.00
G01 X1.9117 Y15.7480 F120.00
G01 X1.9120 Y15.7548 F120.00
G01 X1.9130 Y15.7616 F120.00
G01 X1.9147 Y15.7682 F120.00
G01 X1.9170 Y15.7746 F120.00
G01 X1.9199 Y15.7808 F120.00
G01 X1.9234 Y15.7866 F120.00
G01 X1.9275 Y15.7921 F120.00
G01 X1.9321 Y15.7971 F120.00
G01 X1.9401 Y15.8044 F120.00
G01 X1.7247 Y16.0613 F120.00
G01 X1.7470 Y16.0791 F120.00
G01 X1.7665 Y16.0962 F120.00
G01 X1.7853 Y16.1141 F120.00
G01 X1.8090 Y16.1394 F120.00
G01 X1.8258 Y16.1592 F120.00
G01 X1.8468 Y16.1867 F120.00
G01 X1.8615 Y16.2082 F120.00
G01 X1.8795 Y16.2377 F120.00
G01 X1.8919 Y16.2606 F120.00
G01 X1.9068 Y16.2919 F120.00
G01 X1.9167 Y16.3159 F120.00
G01 X1.9283 Y16.3485 F120.00
G01 X1.9356 Y16.3734 F120.00
G01 X1.9438 Y16.4071 F120.00
G01 X1.9485 Y16.4326 F120.00
G01 X1.9527 Y16.4627 F120.00
G01 X1.9553 Y16.4929 F120.00
G01 X1.9563 Y16.5275 F120.00
G01 X1.9563 Y18.2736 F120.00
G01 X1.9571 Y18.2904 F120.00
G01 X1.9580 Y18.2950 F120.00
G01 X1.9599 Y18.2994 F120.00
G01 X1.9641 Y18.3051 F120.00
G01 X1.9678 Y18.3081 F120.00
G01 X1.9742 Y18.3112 F120.00
G01 X1.9788 Y18.3121 F120.00
G01 X1.9956 Y18.3129 F120.00
G01 X32.4468 Y18.3129 F120.00
G01 X32.4659 Y18.3117 F120.00
G01 X32.4726 Y18.3093 F120.00
G01 X32.4783 Y18.3051 F120.00
G01 X32.4825 Y18.2994 F120.00
G01 X32.4849 Y18.2927 F120.00
G01 X32.4861 Y18.2736 F120.00
G01 X32.4861 Y16.5275 F120.00
G01 X32.4866 Y16.5041 F120.00
G01 X32.4878 Y16.4827 F120.00
G01 X32.4906 Y16.4556 F120.00
G01 X32.4933 Y16.4363 F120.00
G01 X32.4970 Y16.4152 F120.00
G01 X32.4998 Y16.4018 F120.00
G01 X32.5063 Y16.3753 F120.00
G01 X32.5140 Y16.3491 F120.00
G01 X32.5249 Y16.3179 F120.00
G01 X32.5353 Y16.2927 F120.00
G01 X32.5409 Y16.2803 F120.00
G01 X32.5503 Y16.2610 F120.00
G01 X32.5633 Y16.2370 F120.00
G01 X32.5806 Y16.2087 F120.00
G01 X32.5960 Y16.1862 F120.00
G01 X32.6124 Y16.1644 F120.00
G01 X32.6298 Y16.1435 F120.00
G01 X32.6482 Y16.1233 F120.00
G01 X32.6633 Y16.1081 F120.00
G01 X32.6833 Y16.0895 F120.00
G01 X32.6981 Y16.0768 F120.00
G01 X32.7177 Y16.0613 F120.00
G01 X32.7475 Y16.0343 F120.00
G01 X32.7742 Y16.0049 F120.00
G01 X32.7979 Y15.9729 F120.00
G01 X32.8183 Y15.9389 F120.00
G01 X32.8353 Y15.9029 F120.00
G01 X32.8487 Y15.8655 F120.00
G01 X32.8583 Y15.8270 F120.00
G01 X32.8641 Y15.7877 F120.00
G01 X32.8661 Y15.7480 F120.00
G01 X32.8641 Y15.7083 F120.00
G01 X32.8583 Y15.6690 F120.00
G01 X32.8487 Y15.6305 F120.00
G01 X32.8353 Y15.5931 F120.00
G01 X32.8183 Y15.5571 F120.00
G01 X32.7979 Y15.5231 F120.00
G01 X32.7742 Y15.4911 F120.00
G01 X32.7475 Y15.4617 F120.00
G01 X32.7181 Y15.4350 F120.00
G01 X32.6861 Y15.4113 F120.00
G01 X32.6521 Y15.3909 F120.00
G01 X32.6161 Y15.3739 F120.00
G01 X32.5787 Y15.3605 F120.00
G01 X32.5402 Y15.3509 F120.00
G01 X32.5009 Y15.3451 F120.00
G01 X32.4612 Y15.3431 F120.00
G01 X32.4215 Y15.3451 F120.00
G01 X32.3822 Y15.3509 F120.00
G01 X32.3437 Y15.3605 F120.00
G01 X32.3063 Y15.3739 F120.00
G01 X32.2703 Y15.3909 F120.00
G01 X32.2363 Y15.4113 F120.00
G01 X32.2043 Y15.4350 F120.00
G01 X32.1749 Y15.4617 F120.00
G01 X32.1482 Y15.4911 F120.00
G01 X32.1245 Y15.5231 F120.00
G01 X32.1041 Y15.5571 F120.00
G01 X32.0871 Y15.5931 F120.00
G01 X32.0737 Y15.6305 F120.00
G01 X32.0641 Y15.6690 F120.00
G01 X32.0583 Y15.7083 F120.00
G01 X32.0563 Y15.7480 F120.00
G01 X32.0583 Y15.7877 F120.00
G01 X32.0641 Y15.8270 F120.00
G01 X32.0737 Y15.8655 F120.00
G01 X32.0871 Y15.9029 F120.00
G01 X32.1041 Y15.9389 F120.00
G01 X32.1245 Y15.9729 F120.00
G01 X32.1482 Y16.0049 F120.00
G01 X32.1749 Y16.0343 F120.00
G01 X32.2047 Y16.0613 F120.00
G01 X32.2243 Y16.0768 F120.00
G01 X32.2449 Y16.0947 F120.00
G01 X32.2591 Y16.1081 F120.00
G01 X32.2782 Y16.1275 F120.00
G01 X32.2964 Y16.1479 F120.00
G01 X32.3136 Y16.1690 F120.00
G01 X32.3298 Y16.1910 F120.00
G01 X32.3450 Y16.2136 F120.00
G01 X32.3591 Y16.2370 F120.00
G01 X32.3657 Y16.2489 F120.00
G01 X32.3756 Y16.2680 F120.00
G01 X32.3871 Y16.2927 F120.00
G01 X32.3995 Y16.3234 F120.00
G01 X32.4084 Y16.3491 F120.00
G01 X32.4146 Y16.3697 F120.00
G01 X32.4181 Y16.3829 F120.00
G01 X32.4243 Y16.4094 F120.00
G01 X32.4291 Y16.4363 F120.00
G01 X32.4328 Y16.4633 F120.00
G01 X32.4346 Y16.4827 F120.00
G01 X32.4358 Y16.5041 F120.00
G01 X32.4363 Y16.5275 F120.00
G01 X32.4363 Y17.6781 F120.00
G01 X32.4358 Y17.7027 F120.00
G01 X32.4339 Y17.7313 F120.00
G01 X32.4314 Y17.7538 F120.00
G01 X32.4270 Y17.7822 F120.00
G01 X32.4212 Y17.8103 F120.00
G01 X32.4140 Y17.8381 F120.00
G01 X32.4055 Y17.8655 F120.00
G01 X32.3986 Y17.8848 F120.00
G01 X32.3878 Y17.9114 F120.00
G01 X32.3757 Y17.9374 F120.00
G01 X32.3623 Y17.9629 F120.00
G01 X32.3477 Y17.9876 F120.00
G01 X32.3319 Y18.0116 F120.00
G01 X32.3187 Y18.0299 F120.00
G01 X32.3009 Y18.0524 F120.00
G01 X32.2820 Y18.0740 F120.00
G01 X32.2620 Y18.0946 F120.00
G01 X32.2472 Y18.1088 F120.00
G01 X32.2256 Y18.1277 F120.00
G01 X32.2031 Y18.1455 F120.00
G01 X32.1797 Y18.1622 F120.00
G01 X32.1608 Y18.1745 F120.00
G01 X32.1361 Y18.1891 F120.00
G01 X32.1106 Y18.2025 F120.00
G01 X32.0921 Y18.2112 F120.00
G01 X32.0657 Y18.2224 F120.00
G01 X32.0387 Y18.2323 F120.00
G01 X32.0113 Y18.2408 F120.00
G01 X31.9894 Y18.2465 F120.00
G01 X31.9614 Y18.2526 F120.00
G01 X31.9412 Y18.2561 F120.00
G01 X31.9127 Y18.2599 F120.00
G01 X31.8841 Y18.2622 F120.00
G01 X31.8554 Y18.2631 F120.00
G01 X25.4649 Y18.2631 F120.00
G01 X25.4365 Y18.2622 F120.00
G01 X25.4081 Y18.2599 F120.00
G01 X25.3798 Y18.2562 F120.00
G01 X25.3518 Y18.2512 F120.00
G01 X25.3240 Y18.2448 F120.00
G01 X25.2966 Y18.2371 F120.00
G01 X25.2696 Y18.2280 F120.00
G01 X25.2431 Y18.2177 F120.00
G01 X25.2171 Y18.2060 F120.00
G01 X25.1863 Y18.1902 F120.00
G01 X25.1739 Y18.1832 F120.00
G01 X25.1548 Y18.1715 F120.00
G01 X25.1262 Y18.1521 F120.00
G01 X25.1148 Y18.1436 F120.00
G01 X25.0972 Y18.1297 F120.00
G01 X25.0712 Y18.1070 F120.00
G01 X25.0550 Y18.0914 F120.00
G01 X25.0451 Y18.0812 F120.00
G01 X25.0220 Y18.0555 F120.00
G01 X25.0079 Y18.0381 F120.00
G01 X24.9993 Y18.0267 F120.00
G01 X24.9795 Y17.9984 F120.00
G01 X24.9718 Y17.9864 F120.00
G01 X24.9604 Y17.9671 F120.00
G01 X24.9442 Y17.9366 F120.00
G01 X24.9381 Y17.9237 F120.00
G01 X24.9291 Y17.9032 F120.00
G01 X24.9167 Y17.8709 F120.00
G01 X24.9097 Y17.8496 F120.00
G01 X24.9057 Y17.8360 F120.00
G01 X24.8974 Y17.8024 F120.00
G01 X24.8920 Y17.7744 F120.00
G01 X24.8880 Y17.7462 F120.00
G01 X24.8854 Y17.7179 F120.00
G01 X24.8841 Y17.6894 F120.00
G01 X24.8698 Y16.5221 F120.00
G01 X24.8703 Y16.5004 F120.00
G01 X24.8710 Y16.4866 F120.00
G01 X24.8742 Y16.4532 F120.00
G01 X24.8772 Y16.4317 F120.00
G01 X24.8807 Y16.4123 F120.00
G01 X24.8835 Y16.3987 F120.00
G01 X24.8886 Y16.3776 F120.00
G01 X24.8980 Y16.3454 F120.00
G01 X24.9050 Y16.3248 F120.00
G01 X24.9121 Y16.3064 F120.00
G01 X24.9174 Y16.2936 F120.00
G01 X24.9263 Y16.2738 F120.00
G01 X24.9351 Y16.2562 F120.00
G01 X24.9454 Y16.2370 F120.00
G01 X24.9628 Y16.2083 F120.00
G01 X24.9783 Y16.1854 F120.00
G01 X24.9912 Y16.1680 F120.00
G01 X24.9997 Y16.1571 F120.00
G01 X25.0216 Y16.1316 F120.00
G01 X25.0406 Y16.1116 F120.00
G01 X25.0606 Y16.0925 F120.00
G01 X25.0769 Y16.0782 F120.00
G01 X25.0970 Y16.0619 F120.00
G01 X25.1275 Y16.0343 F120.00
G01 X25.1542 Y16.0049 F120.00
G01 X25.1779 Y15.9729 F120.00
G01 X25.1983 Y15.9389 F120.00
G01 X25.2153 Y15.9029 F120.00
G01 X25.2287 Y15.8655 F120.00
G01 X25.2383 Y15.8270 F120.00
G01 X25.2441 Y15.7877 F120.00
G01 X25.2461 Y15.7480 F120.00
G01 X25.2441 Y15.7083 F120.00
G01 X25.2383 Y15.6690 F120.00
G01 X25.2287 Y15.6305 F120.00
G01 X25.2153 Y15.5931 F120.00
G01 X25.1983 Y15.5571 F120.00
G01 X25.1779 Y15.5231 F120.00
G01 X25.1542 Y15.4911 F120.00
G01 X25.1275 Y15.4617 F120.00
G01 X25.0981 Y15.4350 F120.00
G01 X25.0661 Y15.4113 F120.00
G01 X25.0321 Y15.3909 F120.00
G01 X24.9961 Y15.3739 F120.00
G01 X24.9587 Y15.3605 F120.00
G01 X24.9202 Y15.3509 F120.00
G01 X24.8809 Y15.3451 F120.00
G01 X24.8412 Y15.3431 F120.00
G01 X24.8015 Y15.3451 F120.00
G01 X24.7622 Y15.3509 F120.00
G01 X24.7237 Y15.3605 F120.00
G01 X24.6863 Y15.3739 F120.00
G01 X24.6503 Y15.3909 F120.00
G01 X24.6163 Y15.4113 F120.00
G01 X24.5843 Y15.4350 F120.00
G01 X24.5549 Y15.4617 F120.00
G01 X24.5282 Y15.4911 F120.00
G01 X24.5045 Y15.5231 F120.00
G01 X24.4841 Y15.5571 F120.00
G01 X24.4671 Y15.5931 F120.00
G01 X24.4537 Y15.6305 F120.00
G01 X24.4441 Y15.6690 F120.00
G01 X24.4383 Y15.7083 F120.00
G01 X24.4363 Y15.7480 F120.00
G01 X24.4383 Y15.7877 F120.00
G01 X24.4441 Y15.8270 F120.00
G01 X24.4537 Y15.8655 F120.00
G01 X24.4671 Y15.9029 F120.00
G01 X24.4841 Y15.9389 F120.00
G01 X24.5045 Y15.9729 F120.00
G01 X24.5282 Y16.0049 F120.00
G01 X24.5549 Y16.0343 F120.00
G01 X24.5844 Y16.0610 F120.00
G01 X24.6037 Y16.0760 F120.00
G01 X24.6216 Y16.0912 F120.00
G01 X24.6374 Y16.1056 F120.00
G01 X24.6541 Y16.1221 F120.00
G01 X24.6716 Y16.1409 F120.00
G01 X24.6882 Y16.1604 F120.00
G01 X24.7065 Y16.1840 F120.00
G01 X24.7201 Y16.2033 F120.00
G01 X24.7361 Y16.2285 F120.00
G01 X24.7509 Y16.2545 F120.00
G01 X24.7643 Y16.2812 F120.00
G01 X24.7763 Y16.3086 F120.00
G01 X24.7870 Y16.3366 F120.00
G01 X24.7961 Y16.3650 F120.00
G01 X24.8038 Y16.3939 F120.00
G01 X24.8101 Y16.4232 F120.00
G01 X24.8136 Y16.4442 F120.00
G01 X24.8166 Y16.4676 F120.00
G01 X24.8185 Y16.4888 F120.00
G01 X24.8198 Y16.5187 F120.00
G01 X24.8341 Y17.6709 F120.00
G01 X24.8335 Y17.7039 F120.00
G01 X24.8315 Y17.7328 F120.00
G01 X24.8300 Y17.7472 F120.00
G01 X24.8272 Y17.7677 F120.00
G01 X24.8221 Y17.7961 F120.00
G01 X24.8170 Y17.8183 F120.00
G01 X24.8106 Y17.8423 F120.00
G01 X24.8031 Y17.8659 F120.00
G01 X24.7932 Y17.8931 F120.00
G01 X24.7844 Y17.9141 F120.00
G01 X24.7757 Y17.9328 F120.00
G01 X24.7654 Y17.9531 F120.00
G01 X24.7512 Y17.9783 F120.00
G01 X24.7380 Y17.9993 F120.00
G01 X24.7240 Y18.0198 F120.00
G01 X24.7103 Y18.0380 F120.00
G01 X24.6973 Y18.0540 F120.00
G01 X24.6824 Y18.0712 F120.00
G01 X24.6653 Y18.0892 F120.00
G01 X24.6475 Y18.1065 F120.00
G01 X24.6258 Y18.1256 F120.00
G01 X24.6082 Y18.1399 F120.00
G01 X24.5916 Y18.1523 F120.00
G01 X24.5729 Y18.1653 F120.00
G01 X24.5484 Y18.1807 F120.00
G01 X24.5269 Y18.1930 F120.00
G01 X24.5048 Y18.2043 F120.00
G01 X24.4785 Y18.2163 F120.00
G01 X24.4574 Y18.2248 F120.00
G01 X24.4301 Y18.2344 F120.00
G01 X24.4103 Y18.2404 F120.00
G01 X24.3883 Y18.2463 F120.00
G01 X24.3641 Y18.2517 F120.00
G01 X24.3397 Y18.2560 F120.00
G01 X24.3172 Y18.2591 F120.00
G01 X24.2966 Y18.2612 F120.00
G01 X24.2677 Y18.2628 F120.00
G01 X24.2491 Y18.2631 F120.00
G01 X10.1933 Y18.2631 F120.00
G01 X10.1602 Y18.2622 F120.00
G01 X10.1355 Y18.2602 F120.00
G01 X10.1109 Y18.2573 F120.00
G01 X10.0783 Y18.2517 F120.00
G01 X10.0601 Y18.2477 F120.00
G01 X10.0401 Y18.2427 F120.00
G01 X10.0222 Y18.2375 F120.00
G01 X9.9986 Y18.2297 F120.00
G01 X9.9773 Y18.2218 F120.00
G01 X9.9583 Y18.2138 F120.00
G01 X9.9376 Y18.2043 F120.00
G01 X9.9155 Y18.1930 F120.00
G01 X9.8940 Y18.1807 F120.00
G01 X9.8746 Y18.1687 F120.00
G01 X9.8575 Y18.1571 F120.00
G01 X9.8391 Y18.1437 F120.00
G01 X9.8197 Y18.1283 F120.00
G01 X9.8056 Y18.1162 F120.00
G01 X9.7904 Y18.1022 F120.00
G01 X9.7742 Y18.0862 F120.00
G01 X9.7600 Y18.0712 F120.00
G01 X9.7411 Y18.0493 F120.00
G01 X9.7270 Y18.0314 F120.00
G01 X9.7149 Y18.0147 F120.00
G01 X9.7044 Y17.9993 F120.00
G01 X9.6912 Y17.9783 F120.00
G01 X9.6799 Y17.9586 F120.00
G01 X9.6703 Y17.9403 F120.00
G01 X9.6605 Y17.9197 F120.00
G01 X9.6523 Y17.9008 F120.00
G01 X9.6441 Y17.8796 F120.00
G01 X9.6373 Y17.8601 F120.00
G01 X9.6318 Y17.8423 F120.00
G01 X9.6254 Y17.8183 F120.00
G01 X9.6203 Y17.7961 F120.00
G01 X9.6165 Y17.7759 F120.00
G01 X9.6124 Y17.7472 F120.00
G01 X9.6101 Y17.7246 F120.00
G01 X9.6086 Y17.6957 F120.00
G01 X9.6083 Y17.6709 F120.00
G01 X9.6226 Y16.5187 F120.00
G01 X9.6234 Y16.4974 F120.00
G01 X9.6252 Y16.4739 F120.00
G01 X9.6276 Y16.4527 F120.00
G01 X9.6323 Y16.4232 F120.00
G01 X9.6386 Y16.3939 F120.00
G01 X9.6463 Y16.3650 F120.00
G01 X9.6554 Y16.3366 F120.00
G01 X9.6661 Y16.3086 F120.00
G01 X9.6781 Y16.2812 F120.00
G01 X9.6915 Y16.2545 F120.00
G01 X9.7063 Y16.2285 F120.00
G01 X9.7223 Y16.2033 F120.00
G01 X9.7359 Y16.1840 F120.00
G01 X9.7542 Y16.1604 F120.00
G01 X9.7708 Y16.1409 F120.00
G01 X9.7883 Y16.1221 F120.00
G01 X9.8050 Y16.1056 F120.00
G01 X9.8208 Y16.0912 F120.00
G01 X9.8387 Y16.0760 F120.00
G01 X9.8580 Y16.0610 F120.00
G01 X9.8875 Y16.0343 F120.00
G01 X9.9142 Y16.0049 F120.00
G01 X9.9379 Y15.9729 F120.00
G01 X9.9583 Y15.9389 F120.00
G01 X9.9753 Y15.9029 F120.00
G01 X9.9887 Y15.8655 F120.00
G01 X9.9983 Y15.8270 F120.00
G01 X10.0041 Y15.7877 F120.00
G01 X10.0061 Y15.7480 F120.00
G01 X10.0041 Y15.7083 F120.00
G01 X9.9983 Y15.6690 F120.00
G01 X9.9887 Y15.6305 F120.00
G01 X9.9753 Y15.5931 F120.00
G01 X9.9583 Y15.5571 F120.00
G01 X9.9379 Y15.5231 F120.00
G01 X9.9142 Y15.4911 F120.00
G01 X9.8875 Y15.4617 F120.00
G01 X9.8581 Y15.4350 F120.00
G01 X9.8261 Y15.4113 F120.00
G01 X9.7921 Y15.3909 F120.00
G01 X9.7561 Y15.3739 F120.00
G01 X9.7187 Y15.3605 F120.00
G01 X9.6802 Y15.3509 F120.00
G01 X9.6409 Y15.3451 F120.00
G01 X9.6012 Y15.3431 F120.00
G01 X9.5615 Y15.3451 F120.00
G01 X9.5222 Y15.3509 F120.00
G01 X9.4837 Y15.3605 F120.00
G01 X9.4463 Y15.3739 F120.00
G01 X9.4103 Y15.3909 F120.00
G01 X9.3763 Y15.4113 F120.00
G01 X9.3443 Y15.4350 F120.00
G01 X9.3149 Y15.4617 F120.00
G01 X9.2882 Y15.4911 F120.00
G01 X9.2645 Y15.5231 F120.00
G01 X9.2441 Y15.5571 F120.00
G01 X9.2271 Y15.5931 F120.00
G01 X9.2137 Y15.6305 F120.00
G01 X9.2041 Y15.6690 F120.00
G01 X9.1983 Y15.7083 F120.00
G01 X9.1963 Y15.7480 F120.00
G01 X9.1983 Y15.7877 F120.00
G01 X9.2041 Y15.8270 F120.00
G01 X9.2137 Y15.8655 F120.00
G01 X9.2271 Y15.9029 F120.00
G01 X9.2441 Y15.9389 F120.00
G01 X9.2645 Y15.9729 F120.00
G01 X9.2882 Y16.0049 F120.00
G01 X9.3149 Y16.0343 F120.00
G01 X9.3454 Y16.0619 F120.00
G01 X9.3655 Y16.0782 F120.00
G01 X9.3818 Y16.0925 F120.00
G01 X9.4018 Y16.1116 F120.00
G01 X9.4208 Y16.1316 F120.00
G01 X9.4389 Y16.1525 F120.00
G01 X9.4595 Y16.1790 F120.00
G01 X9.4675 Y16.1903 F120.00
G01 X9.4796 Y16.2083 F120.00
G01 X9.4970 Y16.2370 F120.00
G01 X9.5073 Y16.2562 F120.00
G01 X9.5161 Y16.2738 F120.00
G01 X9.5218 Y16.2864 F120.00
G01 X9.5303 Y16.3064 F120.00
G01 X9.5420 Y16.3379 F120.00
G01 X9.5485 Y16.3586 F120.00
G01 X9.5538 Y16.3776 F120.00
G01 X9.5571 Y16.3910 F120.00
G01 X9.5617 Y16.4123 F120.00
G01 X9.5672 Y16.4453 F120.00
G01 X9.5697 Y16.4669 F120.00
G01 X9.5714 Y16.4866 F120.00
G01 X9.5721 Y16.5004 F120.00
G01 X9.5726 Y16.5221 F120.00
G01 X9.5583 Y17.6894 F120.00
G01 X9.5570 Y17.7179 F120.00
G01 X9.5544 Y17.7462 F120.00
G01 X9.5504 Y17.7744 F120.00
G01 X9.5450 Y17.8024 F120.00
G01 X9.5383 Y17.8301 F120.00
G01 X9.5283 Y17.8632 F120.00
G01 X9.5236 Y17.8766 F120.00
G01 X9.5156 Y17.8976 F120.00
G01 X9.5017 Y17.9292 F120.00
G01 X9.4955 Y17.9420 F120.00
G01 X9.4850 Y17.9618 F120.00
G01 X9.4673 Y17.9915 F120.00
G01 X9.4550 Y18.0102 F120.00
G01 X9.4467 Y18.0218 F120.00
G01 X9.4256 Y18.0492 F120.00
G01 X9.4111 Y18.0662 F120.00
G01 X9.4015 Y18.0768 F120.00
G01 X9.3772 Y18.1014 F120.00
G01 X9.3667 Y18.1111 F120.00
G01 X9.3499 Y18.1258 F120.00
G01 X9.3228 Y18.1473 F120.00
G01 X9.3112 Y18.1557 F120.00
G01 X9.2927 Y18.1682 F120.00
G01 X9.2632 Y18.1862 F120.00
G01 X9.2435 Y18.1970 F120.00
G01 X9.2308 Y18.2034 F120.00
G01 X9.1993 Y18.2177 F120.00
G01 X9.1728 Y18.2280 F120.00
G01 X9.1458 Y18.2371 F120.00
G01 X9.1184 Y18.2448 F120.00
G01 X9.0906 Y18.2512 F120.00
G01 X9.0626 Y18.2562 F120.00
G01 X9.0343 Y18.2599 F120.00
G01 X9.0059 Y18.2622 F120.00
G01 X8.9775 Y18.2631 F120.00
G01 X2.5911 Y18.2631 F120.00
G01 X2.5665 Y18.2626 F120.00
G01 X2.5379 Y18.2607 F120.00
G01 X2.5154 Y18.2582 F120.00
G01 X2.4870 Y18.2538 F120.00
G01 X2.4589 Y18.2480 F120.00
G01 X2.4390 Y18.2430 F120.00
G01 X2.4115 Y18.2348 F120.00
G01 X2.3902 Y18.2275 F120.00
G01 X2.3634 Y18.2170 F120.00
G01 X2.3447 Y18.2087 F120.00
G01 X2.3190 Y18.1959 F120.00
G01 X2.2992 Y18.1850 F120.00
G01 X2.2747 Y18.1701 F120.00
G01 X2.2576 Y18.1587 F120.00
G01 X2.2393 Y18.1455 F120.00
G01 X2.2168 Y18.1277 F120.00
G01 X2.2013 Y18.1143 F120.00
G01 X2.1804 Y18.0946 F120.00
G01 X2.1646 Y18.0785 F120.00
G01 X2.1455 Y18.0571 F120.00
G01 X2.1274 Y18.0348 F120.00
G01 X2.1152 Y18.0183 F120.00
G01 X2.0991 Y17.9945 F120.00
G01 X2.0872 Y17.9753 F120.00
G01 X2.0733 Y17.9502 F120.00
G01 X2.0640 Y17.9319 F120.00
G01 X2.0522 Y17.9058 F120.00
G01 X2.0438 Y17.8848 F120.00
G01 X2.0344 Y17.8577 F120.00
G01 X2.0284 Y17.8381 F120.00
G01 X2.0227 Y17.8162 F120.00
G01 X2.0166 Y17.7882 F120.00
G01 X2.0131 Y17.7680 F120.00
G01 X2.0093 Y17.7395 F120.00
G01 X2.0070 Y17.7109 F120.00
G01 X2.0061 Y17.6781 F120.00
G01 X2.0061 Y16.5275 F120.00
G01 X2.0067 Y16.5015 F120.00
G01 X2.0088 Y16.4713 F120.00
G01 X2.0116 Y16.4476 F120.00
G01 X2.0165 Y16.4177 F120.00
G01 X2.0210 Y16.3965 F120.00
G01 X2.0285 Y16.3672 F120.00
G01 X2.0376 Y16.3383 F120.00
G01 X2.0481 Y16.3099 F120.00
G01 X2.0601 Y16.2820 F120.00
G01 X2.0735 Y16.2548 F120.00
G01 X2.0883 Y16.2284 F120.00
G01 X2.1045 Y16.2028 F120.00
G01 X2.1156 Y16.1867 F120.00
G01 X2.1312 Y16.1660 F120.00
G01 X2.1505 Y16.1426 F120.00
G01 X2.1666 Y16.1250 F120.00
G01 X2.1817 Y16.1096 F120.00
G01 X2.1991 Y16.0933 F120.00
G01 X2.2154 Y16.0791 F120.00
G01 X2.2377 Y16.0613 F120.00
G01 X2.2675 Y16.0343 F120.00
G01 X2.2942 Y16.0049 F120.00
G01 X2.3179 Y15.9729 F120.00
G01 X2.3383 Y15.9389 F120.00
G01 X2.3553 Y15.9029 F120.00
G01 X2.3687 Y15.8655 F120.00
G01 X2.3783 Y15.8270 F120.00
G01 X2.3841 Y15.7877 F120.00
G01 X2.3861 Y15.7480 F120.00
G01 X2.3841 Y15.7083 F120.00
G01 X2.3783 Y15.6690 F120.00
G01 X2.3687 Y15.6305 F120.00
G01 X2.3553 Y15.5931 F120.00
G01 X2.3383 Y15.5571 F120.00
G01 X2.3179 Y15.5231 F120.00
G01 X2.2942 Y15.4911 F120.00
G01 X2.2675 Y15.4617 F120.00
G01 X2.2381 Y15.4350 F120.00
G01 X2.2061 Y15.4113 F120.00
G01 X2.1721 Y15.3909 F120.00
G01 X2.1361 Y15.3739 F120.00
G01 X2.0987 Y15.3605 F120.00
G01 X2.0602 Y15.3509 F120.00
G01 X2.0209 Y15.3451 F120.00
G01 X1.9812 Y15.3431 F120.00
G01 X1.9415 Y15.3451 F120.00
G01 X1.9022 Y15.3509 F120.00
G01 X1.8637 Y15.3605 F120.00
G01 X1.8263 Y15.3739 F120.00
G01 X1.7903 Y15.3909 F120.00
G01 X1.7563 Y15.4113 F120.00
G01 X1.7243 Y15.4350 F120.00
G01 X1.6949 Y15.4617 F120.00
G01 X1.6682 Y15.4911 F120.00
G01 X1.6445 Y15.5231 F120.00
G01 X1.6241 Y15.5571 F120.00
G01 X1.6071 Y15.5931 F120.00
G01 X1.5937 Y15.6305 F120.00
G01 X1.5841 Y15.6690 F120.00
G01 X1.5783 Y15.7083 F120.00
G01 X1.5763 Y15.7480 F120.00
G01 X1.5783 Y15.7877 F120.00
G01 X1.5841 Y15.8270 F120.00
G01 X1.5937 Y15.8655 F120.00
G01 X1.6071 Y15.9029 F120.00
G01 X1.6241 Y15.9389 F120.00
G01 X1.6445 Y15.9729 F120.00
G01 X1.6682 Y16.0049 F120.00
G01 X1.6949 Y16.0343 F120.00
G01 X1.7247 Y16.0613 F120.00
G00 Z2.0000
G00 X9.6006 Y15.8387
G01 F60.00
G01 Z0.0000
G01 F120.00
G01 X9.6191 Y15.8230 F120.00
G01 X9.6414 Y15.8050 F120.00
G01 X9.6511 Y15.7963 F120.00
G01 X9.6549 Y15.7921 F120.00
G01 X9.6590 Y15.7866 F120.00
G01 X9.6625 Y15.7808 F120.00
G01 X9.6654 Y15.7746 F120.00
G01 X9.6677 Y15.7682 F120.00
G01 X9.6694 Y15.7616 F120.00
G01 X9.6704 Y15.7548 F120.00
G01 X9.6707 Y15.7480 F120.00
G01 X9.6704 Y15.7412 F120.00
G01 X9.6694 Y15.7344 F120.00
G01 X9.6677 Y15.7278 F120.00
G01 X9.6654 Y15.7214 F120.00
G01 X9.6625 Y15.7152 F120.00
G01 X9.6590 Y15.7094 F120.00
G01 X9.6549 Y15.7039 F120.00
G01 X9.6503 Y15.6989 F120.00
G01 X9.6453 Y15.6943 F120.00
G01 X9.6398 Y15.6902 F120.00
G01 X9.6340 Y15.6867 F120.00
G01 X9.6278 Y15.6838 F120.00
G01 X9.6214 Y15.6815 F120.00
G01 X9.6148 Y15.6798 F120.00
G01 X9.6080 Y15.6788 F120.00
G01 X9.6012 Y15.6785 F120.00
G01 X9.5944 Y15.6788 F120.00
G01 X9.5876 Y15.6798 F120.00
G01 X9.5810 Y15.6815 F120.00
G01 X9.5746 Y15.6838 F120.00
G01 X9.5684 Y15.6867 F120.00
G01 X9.5626 Y15.6902 F120.00
G01 X9.5571 Y15.6943 F120.00
G01 X9.5521 Y15.6989 F120.00
G01 X9.5475 Y15.7039 F120.00
G01 X9.5434 Y15.7094 F120.00
G01 X9.5399 Y15.7152 F120.00
G01 X9.5370 Y15.7214 F120.00
G01 X9.5347 Y15.7278 F120.00
G01 X9.5330 Y15.7344 F120.00
G01 X9.5320 Y15.7412 F120.00
G01 X9.5317 Y15.7480 F120.00
G01 X9.5320 Y15.7548 F120.00
G01 X9.5330 Y15.7616 F120.00
G01 X9.5347 Y15.7682 F120.00
G01 X9.5370 Y15.7746 F120.00
G01 X9.5399 Y15.7808 F120.00
G01 X9.5434 Y15.7866 F120.00
G01 X9.5475 Y15.7921 F120.00
G01 X9.5521 Y15.7971 F120.00
G01 X9.5617 Y15.8059 F120.00
G01 X9.5806 Y15.8214 F120.00
G01 X9.6006 Y15.8387 F120.00
G00 Z2.0000
G00 X12.1412 Y15.6573
G01 F60.00
G01 Z0.0000
G01 F120.00
G01 X12.1202 Y15.6753 F120.00
G01 X12.1001 Y15.6916 F120.00
G01 X12.0921 Y15.6989 F120.00
G01 X12.0875 Y15.7039 F120.00
G01 X12.0834 Y15.7094 F120.00
G01 X12.0799 Y15.7152 F120.00
G01 X12.0770 Y15.7214 F120.00
G01 X12.0747 Y15.7278 F120.00
G01 X12.0730 Y15.7344 F120.00
G01 X12.0720 Y15.7412 F120.00
G01 X12.0717 Y15.7480 F120.00
G01 X12.0720 Y15.7548 F120.00
G01 X12.0730 Y15.7616 F120.00
G01 X12.0747 Y15.7682 F120.00
G01 X12.0770 Y15.7746 F120.00
G01 X12.0799 Y15.7808 F120.00
G01 X12.0834 Y15.7866 F120.00
G01 X12.0875 Y15.7921 F120.00
G01 X12.0921 Y15.7971 F120.00
G01 X12.0971 Y15.8017 F120.00
G01 X12.1026 Y15.8058 F120.00
G01 X12.1084 Y15.8093 F120.00
G01 X12.1146 Y15.8122 F120.00
G01 X12.1210 Y15.8145 F120.00
G01 X12.1276 Y15.8162 F120.00
G01 X12.1344 Y15.8172 F120.00
G01 X12.1412 Y15.8175 F120.00
G01 X12.1480 Y15.8172 F120.00
G01 X12.1548 Y15.8162 F120.00
G01 X12.1614 Y15.8145 F120.00
G01 X12.1678 Y15.8122 F120.00
G01 X12.1740 Y15.8093 F120.00
G01 X12.1798 Y15.8058 F120.00
G01 X12.1853 Y15.8017 F120.00
G01 X12.1903 Y15.7971 F120.00
G01 X12.1949 Y15.7921 F120.00
G01 X12.1990 Y15.7866 F120.00
G01 X12.2025 Y15.7808 F120.00
G01 X12.2054 Y15.7746 F120.00
G01 X12.2077 Y15.7682 F120.00
G01 X12.2094 Y15.7616 F120.00
G01 X12.2104 Y15.7548 F120.00
G01 X12.2107 Y15.7480 F120.00
G01 X12.2104 Y15.7412 F120.00
G01 X12.2094 Y15.7344 F120.00
G01 X12.2077 Y15.7278 F120.00
G01 X12.2054 Y15.7214 F120.00
G01 X12.2025 Y15.7152 F120.00
G01 X12.1990 Y15.7094 F120.00
G01 X12.1949 Y15.7039 F120.00
G01 X12.1903 Y15.6989 F120.00
G01 X12.1824 Y15.6917 F120.00
G01 X12.1632 Y15.6761 F120.00
G01 X12.1412 Y15.6573 F120.00
G00 Z2.0000
G00 X17.2206 Y15.6573
G01 F60.00
G01 Z0.0000
G01 F120.00
G01 X17.2005 Y15.6747 F120.00
G01 X17.1817 Y15.6901 F120.00
G01 X17.1721 Y15.6989 F120.00
G01 X17.1675 Y15.7039 F120.00
G01 X17.1634 Y15.7094 F120.00
G01 X17.1599 Y15.7152 F120.00
G01 X17.1570 Y15.7214 F120.00
G01 X17.1547 Y15.7278 F120.00
G01 X17.1530 Y15.7344 F120.00
G01 X17.1520 Y15.7412 F120.00
G01 X17.1517 Y15.7480 F120.00
G01 X17.1520 Y15.7548 F120.00
G01 X17.1530 Y15.7616 F120.00
G01 X17.1547 Y15.7682 F120.00
G01 X17.1570 Y15.7746 F120.00
G01 X17.1599 Y15.7808 F120.00
G01 X17.1634 Y15.7866 F120.00
G01 X17.1675 Y15.7921 F120.00
G01 X17.1721 Y15.7971 F120.00
G01 X17.1771 Y15.8017 F120.00
G01 X17.1826 Y15.8058 F120.00
G01 X17.1884 Y15.8093 F120.00
G01 X17.1946 Y15.8122 F120.00
G01 X17.2010 Y15.8145 F120.00
G01 X17.2076 Y15.8162 F120.00
G01 X17.2144 Y15.8172 F120.00
G01 X17.2212 Y15.8175 F120.00
G01 X17.2280 Y15.8172 F120.00
G01 X17.2348 Y15.8162 F120.00
G01 X17.2414 Y15.8145 F120.00
G01 X17.2478 Y15.8122 F120.00
G01 X17.2540 Y15.8093 F120.00
G01 X17.2598 Y15.8058 F120.00
G01 X17.2653 Y15.8017 F120.00
G01 X17.2703 Y15.7971 F120.00
G01 X17.2749 Y15.7921 F120.00
G01 X17.2790 Y15.7866 F120.00
G01 X17.2825 Y15.7808 F120.00
G01 X17.2854 Y15.7746 F120.00
G01 X17.2877 Y15.7682 F120.00
G01 X17.2894 Y15.7616 F120.00
G01 X17.2904 Y15.7548 F120.00
G01 X17.2907 Y15.7480 F120.00
G01 X17.2904 Y15.7412 F120.00
G01 X17.2894 Y15.7344 F120.00
G01 X17.2877 Y15.7278 F120.00
G01 X17.2854 Y15.7214 F120.00
G01 X17.2825 Y15.7152 F120.00
G01 X17.2790 Y15.7094 F120.00
G01 X17.2749 Y15.7039 F120.00
G01 X17.2703 Y15.6989 F120.00
G01 X17.2635 Y15.6927 F120.00
G01 X17.2390 Y15.6730 F120.00
G01 X17.2206 Y15.6573 F120.00
G00 Z2.0000
G00 X19.7217 Y15.6901
G01 F60.00
G01 Z0.0000
G01 F120.00
G01 X19.7405 Y15.6747 F120.00
G01 X19.7606 Y15.6573 F120.00
G01 X19.7790 Y15.6730 F120.00
G01 X19.8035 Y15.6927 F120.00
G01 X19.8103 Y15.6989 F120.00
G01 X19.8149 Y15.7039 F120.00
G01 X19.8190 Y15.7094 F120.00
G01 X19.8225 Y15.7152 F120.00
G01 X19.8254 Y15.7214 F120.00
G01 X19.8277 Y15.7278 F120.00
G01 X19.8294 Y15.7344 F120.00
G01 X19.8304 Y15.7412 F120.00
G01 X19.8307 Y15.7480 F120.00
G01 X19.8304 Y15.7548 F120.00
G01 X19.8294 Y15.7616 F120.00
G01 X19.8277 Y15.7682 F120.00
G01 X19.8254 Y15.7746 F120.00
G01 X19.8225 Y15.7808 F120.00
G01 X19.8190 Y15.7866 F120.00
G01 X19.8149 Y15.7921 F120.00
G01 X19.8103 Y15.7971 F120.00
G01 X19.8053 Y15.8017 F120.00
G01 X19.7998 Y15.8058 F120.00
G01 X19.7940 Y15.8093 F120.00
G01 X19.7878 Y15.8122 F120.00
G01 X19.7814 Y15.8145 F120.00
G01 X19.7748 Y15.8162 F120.00
G01 X19.7680 Y15.8172 F120.00
G01 X19.7612 Y15.8175 F120.00
G01 X19.7544 Y15.8172 F120.00
G01 X19.7476 Y15.8162 F120.00
G01 X19.7410 Y15.8145 F120.00
G01 X19.7346 Y15.8122 F120.00
G01 X19.7284 Y15.8093 F120.00
G01 X19.7226 Y15.8058 F120.00
G01 X19.7171 Y15.8017 F120.00
G01 X19.7121 Y15.7971 F120.00
G01 X19.7075 Y15.7921 F120.00
G01 X19.7034 Y15.7866 F120.00
G01 X19.6999 Y15.7808 F120.00
G01 X19.6970 Y15.7746 F120.00
G01 X19.6947 Y15.7682 F120.00
G01 X19.6930 Y15.7616 F120.00
G01 X19.6920 Y15.7548 F120.00
G01 X19.6917 Y15.7480 F120.00
G01 X19.6920 Y15.7412 F120.00
G01 X19.6930 Y15.7344 F120.00
G01 X19.6947 Y15.7278 F120.00
G01 X19.6970 Y15.7214 F120.00
G01 X19.6999 Y15.7152 F120.00
G01 X19.7034 Y15.7094 F120.00
G01 X19.7075 Y15.7039 F120.00
G01 X19.7121 Y15.6989 F120.00
G01 X19.7217 Y15.6901 F120.00
G01 X19.5054 Y15.4341 F120.00
G01 X19.5315 Y15.4127 F120.00
G01 X19.5519 Y15.3941 F120.00
G01 X19.5714 Y15.3745 F120.00
G01 X19.5938 Y15.3495 F120.00
G01 X19.6112 Y15.3280 F120.00
G01 X19.6275 Y15.3057 F120.00
G01 X19.6428 Y15.2827 F120.00
G01 X19.6540 Y15.2641 F120.00
G01 X19.6608 Y15.2520 F120.00
G01 X19.6735 Y15.2275 F120.00
G01 X19.6850 Y15.2023 F120.00
G01 X19.6953 Y15.1767 F120.00
G01 X19.7062 Y15.1450 F120.00
G01 X19.7138 Y15.1184 F120.00
G01 X19.7201 Y15.0915 F120.00
G01 X19.7228 Y15.0779 F120.00
G01 X19.7263 Y15.0565 F120.00
G01 X19.7297 Y15.0290 F120.00
G01 X19.7321 Y14.9956 F120.00
G01 X19.7325 Y14.9640 F120.00
G01 X19.7111 Y13.2434 F120.00
G01 X19.7120 Y13.2288 F120.00
G01 X19.7144 Y13.2221 F120.00
G01 X19.7170 Y13.2182 F120.00
G01 X19.7203 Y13.2148 F120.00
G01 X19.7264 Y13.2111 F120.00
G01 X19.7309 Y13.2097 F120.00
G01 X19.7470 Y13.2085 F120.00
G01 X35.0169 Y13.2086 F120.00
G01 X35.0291 Y13.2093 F120.00
G01 X35.0338 Y13.2103 F120.00
G01 X35.0381 Y13.2121 F120.00
G01 X35.0438 Y13.2164 F120.00
G01 X35.0480 Y13.2221 F120.00
G01 X35.0498 Y13.2265 F120.00
G01 X35.0507 Y13.2312 F120.00
G01 X35.0514 Y13.2449 F120.00
G01 X35.0299 Y14.9640 F120.00
G01 X35.0301 Y14.9877 F120.00
G01 X35.0311 Y15.0094 F120.00
G01 X35.0327 Y15.0290 F120.00
G01 X35.0361 Y15.0565 F120.00
G01 X35.0382 Y15.0701 F120.00
G01 X35.0423 Y15.0915 F120.00
G01 X35.0486 Y15.1184 F120.00
G01 X35.0580 Y15.1506 F120.00
G01 X35.0671 Y15.1767 F120.00
G01 X35.0751 Y15.1969 F120.00
G01 X35.0806 Y15.2096 F120.00
G01 X35.0924 Y15.2346 F120.00
G01 X35.1084 Y15.2641 F120.00
G01 X35.1228 Y15.2877 F120.00
G01 X35.1383 Y15.3106 F120.00
G01 X35.1548 Y15.3327 F120.00
G01 X35.1724 Y15.3540 F120.00
G01 X35.1870 Y15.3702 F120.00
G01 X35.2063 Y15.3900 F120.00
G01 X35.2206 Y15.4035 F120.00
G01 X35.2370 Y15.4179 F120.00
G01 X35.2570 Y15.4341 F120.00
G01 X35.2875 Y15.4617 F120.00
G01 X35.3142 Y15.4911 F120.00
G01 X35.3379 Y15.5231 F120.00
G01 X35.3583 Y15.5571 F120.00
G01 X35.3753 Y15.5931 F120.00
G01 X35.3887 Y15.6305 F120.00
G01 X35.3983 Y15.6690 F120.00
G01 X35.4041 Y15.7083 F120.00
G01 X35.4061 Y15.7480 F120.00
G01 X35.4041 Y15.7877 F120.00
G01 X35.3983 Y15.8270 F120.00
G01 X35.3887 Y15.8655 F120.00
G01 X35.3753 Y15.9029 F120.00
G01 X35.3583 Y15.9389 F120.00
G01 X35.3379 Y15.9729 F120.00
G01 X35.3142 Y16.0049 F120.00
G01 X35.2875 Y16.0343 F120.00
G01 X35.2581 Y16.0610 F120.00
G01 X35.2261 Y16.0847 F120.00
G01 X35.1921 Y16.1051 F120.00
G01 X35.1561 Y16.1221 F120.00
G01 X35.1187 Y16.1355 F120.00
G01 X35.0802 Y16.1451 F120.00
G01 X35.0409 Y16.1509 F120.00
G01 X35.0012 Y16.1529 F120.00
G01 X34.9615 Y16.1509 F120.00
G01 X34.9222 Y16.1451 F120.00
G01 X34.8837 Y16.1355 F120.00
G01 X34.8463 Y16.1221 F120.00
G01 X34.8103 Y16.1051 F120.00
G01 X34.7763 Y16.0847 F120.00
G01 X34.7443 Y16.0610 F120.00
G01 X34.7149 Y16.0343 F120.00
G01 X34.6882 Y16.0049 F120.00
G01 X34.6645 Y15.9729 F120.00
G01 X34.6441 Y15.9389 F120.00
G01 X34.6271 Y15.9029 F120.00
G01 X34.6137 Y15.8655 F120.00
G01 X34.6041 Y15.8270 F120.00
G01 X34.5983 Y15.7877 F120.00
G01 X34.5963 Y15.7480 F120.00
G01 X34.5983 Y15.7083 F120.00
G01 X34.6041 Y15.6690 F120.00
G01 X34.6137 Y15.6305 F120.00
G01 X34.6271 Y15.5931 F120.00
G01 X34.6441 Y15.5571 F120.00
G01 X34.6645 Y15.5231 F120.00
G01 X34.6882 Y15.4911 F120.00
G01 X34.7149 Y15.4617 F120.00
G01 X34.7444 Y15.4350 F120.00
G01 X34.7637 Y15.4199 F120.00
G01 X34.7817 Y15.4047 F120.00
G01 X34.7974 Y15.3904 F120.00
G01 X34.8142 Y15.3738 F120.00
G01 X34.8316 Y15.3551 F120.00
G01 X34.8483 Y15.3356 F120.00
G01 X34.8666 Y15.3120 F120.00
G01 X34.8801 Y15.2927 F120.00
G01 X34.8962 Y15.2675 F120.00
G01 X34.9109 Y15.2415 F120.00
G01 X34.9243 Y15.2148 F120.00
G01 X34.9364 Y15.1874 F120.00
G01 X34.9470 Y15.1595 F120.00
G01 X34.9562 Y15.1310 F120.00
G01 X34.9639 Y15.1021 F120.00
G01 X34.9701 Y15.0729 F120.00
G01 X34.9748 Y15.0433 F120.00
G01 X34.9773 Y15.0221 F120.00
G01 X34.9791 Y14.9987 F120.00
G01 X34.9799 Y14.9774 F120.00
G01 X34.9940 Y13.8506 F120.00
G01 X34.9934 Y13.8175 F120.00
G01 X34.9922 Y13.7969 F120.00
G01 X34.9908 Y13.7825 F120.00
G01 X34.9880 Y13.7599 F120.00
G01 X34.9858 Y13.7456 F120.00
G01 X34.9803 Y13.7172 F120.00
G01 X34.9733 Y13.6891 F120.00
G01 X34.9675 Y13.6693 F120.00
G01 X34.9603 Y13.6477 F120.00
G01 X34.9516 Y13.6245 F120.00
G01 X34.9418 Y13.6017 F120.00
G01 X34.9320 Y13.5812 F120.00
G01 X34.9224 Y13.5629 F120.00
G01 X34.9079 Y13.5378 F120.00
G01 X34.8980 Y13.5221 F120.00
G01 X34.8839 Y13.5017 F120.00
G01 X34.8664 Y13.4786 F120.00
G01 X34.8519 Y13.4611 F120.00
G01 X34.8324 Y13.4397 F120.00
G01 X34.8179 Y13.4250 F120.00
G01 X34.8013 Y13.4094 F120.00
G01 X34.7826 Y13.3931 F120.00
G01 X34.7632 Y13.3777 F120.00
G01 X34.7448 Y13.3643 F120.00
G01 X34.7277 Y13.3527 F120.00
G01 X34.7030 Y13.3376 F120.00
G01 X34.6868 Y13.3285 F120.00
G01 X34.6647 Y13.3172 F120.00
G01 X34.6384 Y13.3052 F120.00
G01 X34.6173 Y13.2966 F120.00
G01 X34.5900 Y13.2870 F120.00
G01 X34.5702 Y13.2810 F120.00
G01 X34.5483 Y13.2751 F120.00
G01 X34.5240 Y13.2697 F120.00
G01 X34.4996 Y13.2654 F120.00
G01 X34.4771 Y13.2623 F120.00
G01 X34.4483 Y13.2596 F120.00
G01 X34.4276 Y13.2586 F120.00
G01 X34.4090 Y13.2583 F120.00
G01 X27.9692 Y13.2583 F120.00
G01 X27.9403 Y13.2592 F120.00
G01 X27.9156 Y13.2612 F120.00
G01 X27.8828 Y13.2654 F120.00
G01 X27.8584 Y13.2697 F120.00
G01 X27.8261 Y13.2772 F120.00
G01 X27.8022 Y13.2839 F120.00
G01 X27.7709 Y13.2945 F120.00
G01 X27.7478 Y13.3035 F120.00
G01 X27.7177 Y13.3172 F120.00
G01 X27.6993 Y13.3265 F120.00
G01 X27.6866 Y13.3335 F120.00
G01 X27.6740 Y13.3407 F120.00
G01 X27.6547 Y13.3527 F120.00
G01 X27.6427 Y13.3608 F120.00
G01 X27.6258 Y13.3727 F120.00
G01 X27.5998 Y13.3931 F120.00
G01 X27.5857 Y13.4053 F120.00
G01 X27.5704 Y13.4192 F120.00
G01 X27.5571 Y13.4322 F120.00
G01 X27.5443 Y13.4457 F120.00
G01 X27.5346 Y13.4564 F120.00
G01 X27.5212 Y13.4722 F120.00
G01 X27.5121 Y13.4835 F120.00
G01 X27.4985 Y13.5017 F120.00
G01 X27.4822 Y13.5256 F120.00
G01 X27.4745 Y13.5378 F120.00
G01 X27.4640 Y13.5556 F120.00
G01 X27.4551 Y13.5720 F120.00
G01 X27.4467 Y13.5886 F120.00
G01 X27.4381 Y13.6074 F120.00
G01 X27.4308 Y13.6245 F120.00
G01 X27.4193 Y13.6555 F120.00
G01 X27.4131 Y13.6752 F120.00
G01 X27.4091 Y13.6891 F120.00
G01 X27.4035 Y13.7112 F120.00
G01 X27.4004 Y13.7253 F120.00
G01 X27.3953 Y13.7538 F120.00
G01 X27.3916 Y13.7825 F120.00
G01 X27.3893 Y13.8114 F120.00
G01 X27.3886 Y13.8258 F120.00
G01 X27.3884 Y13.8465 F120.00
G01 X27.4025 Y14.9731 F120.00
G01 X27.4030 Y14.9923 F120.00
G01 X27.4044 Y15.0136 F120.00
G01 X27.4063 Y15.0328 F120.00
G01 X27.4088 Y15.0518 F120.00
G01 X27.4123 Y15.0729 F120.00
G01 X27.4161 Y15.0917 F120.00
G01 X27.4245 Y15.1249 F120.00
G01 X27.4306 Y15.1453 F120.00
G01 X27.4354 Y15.1595 F120.00
G01 X27.4405 Y15.1735 F120.00
G01 X27.4493 Y15.1953 F120.00
G01 X27.4554 Y15.2090 F120.00
G01 X27.4646 Y15.2282 F120.00
G01 X27.4808 Y15.2583 F120.00
G01 X27.4988 Y15.2874 F120.00
G01 X27.5158 Y15.3120 F120.00
G01 X27.5248 Y15.3239 F120.00
